;FLAVOR:Marlin
;TIME:5447
;Filament used: 7.25383m
;Layer height: 0.2
;MINX:26.84
;MINY:54.34
;MINZ:0.2
;MAXX:180.882
;MAXY:165.66
;MAXZ:2.2
;Generated with Cura_SteamEngine 4.2.0
M140 S50
M105
M190 S50
M104 S210
M105
M109 S210
M82 ;absolute extrusion mode
; Ender 3 Custom Start G-code
G28 ; Home all axes
G92 E0 ; Reset Extruder
G1 Z2.0 F3000 ; Move Z Axis up little to prevent scratching of Heat Bed
G1 X0.1 Y20 Z0.3 F5000.0 ; Move to start position
G1 X0.1 Y200.0 Z0.3 F1500.0 E15 ; Draw the first line
G1 X0.4 Y200.0 Z0.3 F5000.0 ; Move to side a little
G1 X0.4 Y20 Z0.3 F1500.0 E30 ; Draw the second line
G92 E0 ; Reset Extruder
G1 Z2.0 F3000 ; Move Z Axis up little to prevent scratching of Heat Bed
G90 ; absolute xyz﻿
M141 S28
G92 E0
G92 E0
G1 F1500 E-5
;LAYER_COUNT:10
;LAYER:0
M107
G0 F6000 X32.234 Y55.746 Z0.2
;TYPE:SKIRT
G1 F1500 E0
G1 F1200 X33.056 Y55.324 E0.03381
G1 X33.91 Y54.975 E0.06756
G1 X34.792 Y54.701 E0.10135
G1 X35.694 Y54.505 E0.13512
G1 X36.61 Y54.387 E0.16891
G1 X37.21 Y54.353 E0.1909
G1 X37.531 Y54.344 E0.20264
G1 X37.83 Y54.34 E0.21359
G1 X101.805 Y54.34 E2.55418
G1 X101.955 Y54.341 E2.55967
G1 X102.24 Y54.345 E2.5701
G1 X104.769 Y54.345 E2.66263
G1 X105.458 Y54.34 E2.68784
G1 X169.515 Y54.34 E5.03143
G1 X169.668 Y54.341 E5.03703
G1 X170.366 Y54.351 E5.06257
G1 X171.287 Y54.404 E5.09632
G1 X172.201 Y54.537 E5.13012
G1 X173.1 Y54.748 E5.1639
G1 X173.977 Y55.037 E5.19768
G1 X174.826 Y55.4 E5.23146
G1 X175.64 Y55.835 E5.26523
G1 X176.414 Y56.339 E5.29902
G1 X177.141 Y56.908 E5.3328
G1 X177.816 Y57.538 E5.36658
G1 X178.434 Y58.224 E5.40036
G1 X178.99 Y58.96 E5.43411
G1 X179.481 Y59.743 E5.46792
G1 X179.902 Y60.564 E5.50168
G1 X180.25 Y61.419 E5.53545
G1 X180.523 Y62.301 E5.56923
G1 X180.719 Y63.203 E5.603
G1 X180.836 Y64.119 E5.63679
G1 X180.869 Y64.71 E5.65844
G1 X180.878 Y65.03 E5.67015
G1 X180.882 Y65.33 E5.68113
G1 X180.882 Y154.264 E8.93488
G1 X180.881 Y154.396 E8.93971
G1 X180.872 Y155.123 E8.96631
G1 X180.821 Y156.045 E9.0001
G1 X180.69 Y156.959 E9.03388
G1 X180.48 Y157.858 E9.06766
G1 X180.194 Y158.736 E9.10144
G1 X179.832 Y159.585 E9.13521
G1 X179.399 Y160.4 E9.16897
G1 X178.896 Y161.175 E9.20277
G1 X178.329 Y161.903 E9.23653
G1 X177.7 Y162.579 E9.27032
G1 X177.015 Y163.199 E9.30412
G1 X176.28 Y163.756 E9.33786
G1 X175.498 Y164.248 E9.37166
G1 X174.678 Y164.671 E9.40542
G1 X173.823 Y165.021 E9.43922
G1 X172.942 Y165.296 E9.47299
G1 X172.04 Y165.493 E9.50676
G1 X171.124 Y165.612 E9.54056
G1 X170.512 Y165.647 E9.56299
G1 X170.191 Y165.656 E9.57474
G1 X169.892 Y165.66 E9.58568
G1 X105.917 Y165.66 E11.92627
G1 X105.767 Y165.659 E11.93176
G1 X105.491 Y165.655 E11.94186
G1 X102.203 Y165.66 E12.06216
G1 X38.207 Y165.66 E14.40352
G1 X38.054 Y165.659 E14.40912
G1 X37.356 Y165.649 E14.43466
G1 X36.435 Y165.596 E14.46841
G1 X35.521 Y165.463 E14.5022
G1 X34.622 Y165.252 E14.53599
G1 X33.745 Y164.963 E14.56977
G1 X32.896 Y164.6 E14.60355
G1 X32.082 Y164.165 E14.63732
G1 X31.308 Y163.661 E14.67111
G1 X30.581 Y163.092 E14.70489
G1 X29.906 Y162.462 E14.73867
G1 X29.288 Y161.776 E14.77245
G1 X28.732 Y161.04 E14.8062
G1 X28.241 Y160.257 E14.84001
G1 X27.82 Y159.436 E14.87377
G1 X27.472 Y158.581 E14.90754
G1 X27.199 Y157.699 E14.94132
G1 X27.003 Y156.797 E14.97509
G1 X26.886 Y155.881 E15.00888
G1 X26.853 Y155.279 E15.03093
G1 X26.844 Y154.947 E15.04309
G1 X26.84 Y154.658 E15.05366
G1 X26.84 Y65.674 E18.30924
G1 X26.841 Y65.53 E18.31451
G1 X26.85 Y64.865 E18.33884
G1 X26.902 Y63.943 E18.37263
G1 X27.034 Y63.029 E18.40641
G1 X27.245 Y62.13 E18.4402
G1 X27.533 Y61.253 E18.47397
G1 X27.895 Y60.404 E18.50774
G1 X28.33 Y59.589 E18.54154
G1 X28.833 Y58.815 E18.57531
G1 X29.401 Y58.088 E18.60906
G1 X30.031 Y57.412 E18.64287
G1 X30.716 Y56.794 E18.67662
G1 X31.452 Y56.237 E18.71039
G1 X32.234 Y55.746 E18.74418
G0 F6000 X32.65 Y56.018
G1 F1200 X33.463 Y55.624 E18.77723
G1 X34.309 Y55.303 E18.81033
G1 X35.179 Y55.058 E18.8434
G1 X36.067 Y54.891 E18.87646
G1 X37.223 Y54.793 E18.91891
G1 X37.544 Y54.784 E18.93066
G1 X37.83 Y54.78 E18.94112
G1 X101.805 Y54.78 E21.28172
G1 X101.949 Y54.781 E21.28699
G1 X102.234 Y54.785 E21.29742
G1 X104.772 Y54.785 E21.39027
G1 X105.461 Y54.78 E21.41548
G1 X169.515 Y54.78 E23.75897
G1 X169.661 Y54.781 E23.76431
G1 X170.359 Y54.791 E23.78985
G1 X171.262 Y54.844 E23.82294
G1 X172.156 Y54.976 E23.85601
G1 X173.035 Y55.187 E23.88908
G1 X173.892 Y55.475 E23.92216
G1 X174.72 Y55.838 E23.95523
G1 X175.513 Y56.272 E23.98831
G1 X176.265 Y56.774 E24.02139
G1 X176.969 Y57.341 E24.05446
G1 X177.62 Y57.968 E24.08753
G1 X178.213 Y58.65 E24.12059
G1 X178.744 Y59.382 E24.15368
G1 X179.208 Y60.158 E24.18676
G1 X179.601 Y60.972 E24.21983
G1 X179.921 Y61.817 E24.25288
G1 X180.166 Y62.688 E24.28599
G1 X180.332 Y63.576 E24.31904
G1 X180.429 Y64.723 E24.36115
G1 X180.438 Y65.043 E24.37287
G1 X180.442 Y65.33 E24.38337
G1 X180.442 Y154.264 E27.63712
G1 X180.441 Y154.391 E27.64177
G1 X180.432 Y155.118 E27.66837
G1 X180.381 Y156.02 E27.70142
G1 X180.25 Y156.915 E27.73451
G1 X180.041 Y157.794 E27.76757
G1 X179.755 Y158.651 E27.80062
G1 X179.394 Y159.48 E27.8337
G1 X178.962 Y160.274 E27.86677
G1 X178.46 Y161.027 E27.89988
G1 X177.895 Y161.732 E27.93294
G1 X177.269 Y162.384 E27.96601
G1 X176.588 Y162.979 E27.99909
G1 X175.857 Y163.511 E28.03217
G1 X175.083 Y163.976 E28.06521
G1 X174.269 Y164.371 E28.09831
G1 X173.425 Y164.693 E28.13136
G1 X172.555 Y164.939 E28.16444
G1 X171.667 Y165.107 E28.1975
G1 X170.499 Y165.207 E28.24039
G1 X170.178 Y165.216 E28.25214
G1 X169.892 Y165.22 E28.2626
G1 X105.917 Y165.22 E30.6032
G1 X105.773 Y165.219 E30.60847
G1 X105.497 Y165.215 E30.61857
G1 X102.202 Y165.22 E30.73912
G1 X38.207 Y165.22 E33.08045
G1 X38.061 Y165.219 E33.08579
G1 X37.363 Y165.209 E33.11133
G1 X36.46 Y165.156 E33.14443
G1 X35.566 Y165.024 E33.17749
G1 X34.687 Y164.813 E33.21056
G1 X33.83 Y164.525 E33.24364
G1 X33.002 Y164.162 E33.27672
G1 X32.209 Y163.728 E33.30979
G1 X31.457 Y163.226 E33.34287
G1 X30.753 Y162.659 E33.37594
G1 X30.102 Y162.032 E33.40901
G1 X29.509 Y161.35 E33.44207
G1 X28.978 Y160.618 E33.47516
G1 X28.514 Y159.842 E33.50824
G1 X28.121 Y159.028 E33.54131
G1 X27.801 Y158.183 E33.57437
G1 X27.556 Y157.312 E33.60747
G1 X27.39 Y156.424 E33.64052
G1 X27.293 Y155.267 E33.683
G1 X27.284 Y154.935 E33.69515
G1 X27.28 Y154.658 E33.70529
G1 X27.28 Y65.674 E36.96087
G1 X27.281 Y65.536 E36.96592
G1 X27.29 Y64.871 E36.99025
G1 X27.342 Y63.968 E37.02334
G1 X27.474 Y63.074 E37.0564
G1 X27.684 Y62.195 E37.08947
G1 X27.971 Y61.337 E37.12257
G1 X28.333 Y60.509 E37.15563
G1 X28.767 Y59.716 E37.1887
G1 X29.268 Y58.964 E37.22176
G1 X29.835 Y58.259 E37.25486
G1 X30.461 Y57.608 E37.28791
G1 X31.143 Y57.014 E37.321
G1 X31.874 Y56.483 E37.35405
G1 X32.65 Y56.018 E37.38715
G1 F1500 E32.38715
G1 F300 Z0.4
;MESH:susan platform (1) (1) (1).stl(1)
G0 F6000 X101.4 Y153.9 Z0.4
;TYPE:WALL-INNER
G1 F300 Z0.2
G1 F1500 E37.38715
G1 F1200 X38.6 Y153.9 E39.68476
G1 X38.6 Y66.1 E42.89702
G1 X101.4 Y66.1 E45.19463
G1 X101.4 Y153.9 E48.4069
G0 F6000 X101.84 Y154.34
G1 F1200 X38.16 Y154.34 E50.7367
G1 X38.16 Y65.66 E53.98116
G1 X101.84 Y65.66 E56.31097
G1 X101.84 Y154.34 E59.55543
G0 F6000 X102.28 Y154.78
;TYPE:WALL-OUTER
G1 F1200 X37.72 Y154.78 E61.91743
G1 X37.72 Y65.22 E65.19409
G1 X102.28 Y65.22 E67.55609
G1 X102.28 Y154.78 E70.83274
G1 F1500 E65.83274
G1 F300 Z0.4
G0 F6000 X100.97 Y153.47 Z0.4
;TYPE:SKIN
G1 F300 Z0.2
G1 F1500 E70.83274
G1 F1200 X39.03 Y153.47 E73.09889
G1 X39.03 Y66.53 E76.27969
G1 X100.97 Y66.53 E78.54583
G1 X100.97 Y153.47 E81.72663
G1 F1500 E76.72663
G1 F300 Z0.4
G0 F6000 X39.421 Y153.293 Z0.4
G1 F300 Z0.2
G1 F1500 E81.72663
G1 F1200 X39.206 Y153.078 E81.73776
G0 F6000 X39.206 Y152.456
G1 F1200 X40.043 Y153.293 E81.78107
G0 F6000 X40.665 Y153.293
G1 F1200 X39.206 Y151.834 E81.85656
G0 F6000 X39.206 Y151.211
G1 F1200 X41.287 Y153.293 E81.96425
G0 F6000 X41.91 Y153.293
G1 F1200 X39.206 Y150.589 E82.10416
G0 F6000 X39.206 Y149.967
G1 F1200 X42.532 Y153.293 E82.27625
G0 F6000 X43.154 Y153.293
G1 F1200 X39.206 Y149.345 E82.48052
G0 F6000 X39.206 Y148.722
G1 F1200 X43.776 Y153.293 E82.717
G0 F6000 X44.399 Y153.293
G1 F1200 X39.206 Y148.1 E82.98569
G0 F6000 X39.206 Y147.478
G1 F1200 X45.021 Y153.293 E83.28656
G0 F6000 X45.643 Y153.293
G1 F1200 X39.206 Y146.856 E83.61962
G0 F6000 X39.206 Y146.233
G1 F1200 X46.265 Y153.293 E83.98488
G0 F6000 X46.888 Y153.293
G1 F1200 X39.206 Y145.611 E84.38235
G0 F6000 X39.206 Y144.989
G1 F1200 X47.51 Y153.293 E84.81201
G0 F6000 X48.132 Y153.293
G1 F1200 X39.206 Y144.367 E85.27384
G0 F6000 X39.206 Y143.744
G1 F1200 X48.755 Y153.293 E85.76791
G0 F6000 X49.377 Y153.293
G1 F1200 X39.206 Y143.122 E86.29417
G0 F6000 X39.206 Y142.5
G1 F1200 X49.999 Y153.293 E86.8526
G0 F6000 X50.621 Y153.293
G1 F1200 X39.206 Y141.878 E87.44322
G0 F6000 X39.206 Y141.255
G1 F1200 X51.244 Y153.293 E88.06608
G0 F6000 X51.866 Y153.293
G1 F1200 X39.206 Y140.633 E88.72111
G0 F6000 X39.206 Y140.011
G1 F1200 X52.488 Y153.293 E89.40833
G0 F6000 X53.11 Y153.293
G1 F1200 X39.206 Y139.389 E90.12773
G0 F6000 X39.206 Y138.766
G1 F1200 X53.733 Y153.293 E90.87937
G0 F6000 X54.355 Y153.293
G1 F1200 X39.206 Y138.144 E91.66319
G0 F6000 X39.206 Y137.522
G1 F1200 X54.977 Y153.293 E92.47919
G0 F6000 X55.599 Y153.293
G1 F1200 X39.206 Y136.9 E93.32737
G0 F6000 X39.206 Y136.277
G1 F1200 X56.222 Y153.293 E94.20779
G0 F6000 X56.844 Y153.293
G1 F1200 X39.206 Y135.655 E95.12039
G0 F6000 X39.206 Y135.033
G1 F1200 X57.466 Y153.293 E96.06518
G0 F6000 X58.088 Y153.293
G1 F1200 X39.206 Y134.411 E97.04214
G0 F6000 X39.206 Y133.788
G1 F1200 X58.711 Y153.293 E98.05135
G0 F6000 X59.333 Y153.293
G1 F1200 X39.206 Y133.166 E99.09273
G0 F6000 X39.206 Y132.544
G1 F1200 X59.955 Y153.293 E100.1663
G0 F6000 X60.577 Y153.293
G1 F1200 X39.206 Y131.922 E101.27204
G0 F6000 X39.206 Y131.299
G1 F1200 X61.2 Y153.293 E102.41003
G0 F6000 X61.822 Y153.293
G1 F1200 X39.206 Y130.677 E103.58019
G0 F6000 X39.206 Y130.055
G1 F1200 X62.444 Y153.293 E104.78254
G0 F6000 X63.066 Y153.293
G1 F1200 X39.206 Y129.433 E106.01707
G0 F6000 X39.206 Y128.81
G1 F1200 X63.689 Y153.293 E107.28384
G0 F6000 X64.311 Y153.293
G1 F1200 X39.206 Y128.188 E108.58279
G0 F6000 X39.206 Y127.566
G1 F1200 X64.933 Y153.293 E109.91392
G0 F6000 X65.555 Y153.293
G1 F1200 X39.206 Y126.944 E111.27723
G0 F6000 X39.206 Y126.321
G1 F1200 X66.178 Y153.293 E112.67278
G0 F6000 X66.8 Y153.293
G1 F1200 X39.206 Y125.699 E114.10051
G0 F6000 X39.206 Y125.077
G1 F1200 X67.422 Y153.293 E115.56043
G0 F6000 X68.044 Y153.293
G1 F1200 X39.206 Y124.455 E117.05252
G0 F6000 X39.206 Y123.832
G1 F1200 X68.667 Y153.293 E118.57685
G0 F6000 X69.289 Y153.293
G1 F1200 X39.206 Y123.21 E120.13337
G0 F6000 X39.206 Y122.588
G1 F1200 X69.911 Y153.293 E121.72206
G0 F6000 X70.533 Y153.293
G1 F1200 X39.206 Y121.966 E123.34294
G0 F6000 X39.206 Y121.343
G1 F1200 X71.156 Y153.293 E124.99605
G0 F6000 X71.778 Y153.293
G1 F1200 X39.206 Y120.721 E126.68135
G0 F6000 X39.206 Y120.099
G1 F1200 X72.4 Y153.293 E128.39883
G0 F6000 X73.022 Y153.293
G1 F1200 X39.206 Y119.477 E130.14849
G0 F6000 X39.206 Y118.854
G1 F1200 X73.645 Y153.293 E131.93038
G0 F6000 X74.267 Y153.293
G1 F1200 X39.206 Y118.232 E133.74446
G0 F6000 X39.206 Y117.61
G1 F1200 X74.889 Y153.293 E135.59072
G0 F6000 X75.511 Y153.293
G1 F1200 X39.206 Y116.987 E137.46919
G0 F6000 X39.206 Y116.365
G1 F1200 X76.134 Y153.293 E139.37987
G0 F6000 X76.756 Y153.293
G1 F1200 X39.206 Y115.743 E141.32273
G0 F6000 X39.206 Y115.121
G1 F1200 X77.378 Y153.293 E143.29777
G0 F6000 X78 Y153.293
G1 F1200 X39.206 Y114.498 E145.30503
G0 F6000 X39.206 Y113.876
G1 F1200 X78.623 Y153.293 E147.34449
G0 F6000 X79.245 Y153.293
G1 F1200 X39.206 Y113.254 E149.41613
G0 F6000 X39.206 Y112.632
G1 F1200 X79.867 Y153.293 E151.51996
G0 F6000 X80.489 Y153.293
G1 F1200 X39.206 Y112.009 E153.65599
G0 F6000 X39.206 Y111.387
G1 F1200 X81.112 Y153.293 E155.82423
G0 F6000 X81.734 Y153.293
G1 F1200 X39.206 Y110.765 E158.02466
G0 F6000 X39.206 Y110.143
G1 F1200 X82.356 Y153.293 E160.25727
G0 F6000 X82.978 Y153.293
G1 F1200 X39.206 Y109.52 E162.52208
G0 F6000 X39.206 Y108.898
G1 F1200 X83.601 Y153.293 E164.81911
G0 F6000 X84.223 Y153.293
G1 F1200 X39.206 Y108.276 E167.14832
G0 F6000 X39.206 Y107.654
G1 F1200 X84.845 Y153.293 E169.50971
G0 F6000 X85.467 Y153.293
G1 F1200 X39.206 Y107.031 E171.9033
G0 F6000 X39.206 Y106.409
G1 F1200 X86.09 Y153.293 E174.32911
G0 F6000 X86.712 Y153.293
G1 F1200 X39.206 Y105.787 E176.7871
G0 F6000 X39.206 Y105.165
G1 F1200 X87.334 Y153.293 E179.27728
G0 F6000 X87.957 Y153.293
G1 F1200 X39.206 Y104.542 E181.79968
G0 F6000 X39.206 Y103.92
G1 F1200 X88.579 Y153.293 E184.35427
G0 F6000 X89.201 Y153.293
G1 F1200 X39.206 Y103.298 E186.94105
G0 F6000 X39.206 Y102.676
G1 F1200 X89.823 Y153.293 E189.56
G0 F6000 X90.446 Y153.293
G1 F1200 X39.206 Y102.053 E192.21119
G0 F6000 X39.206 Y101.431
G1 F1200 X91.068 Y153.293 E194.89456
G0 F6000 X91.69 Y153.293
G1 F1200 X39.206 Y100.809 E197.61012
G0 F6000 X39.206 Y100.187
G1 F1200 X92.312 Y153.293 E200.35786
G0 F6000 X92.935 Y153.293
G1 F1200 X39.206 Y99.564 E203.13783
G0 F6000 X39.206 Y98.942
G1 F1200 X93.557 Y153.293 E205.94998
G0 F6000 X94.179 Y153.293
G1 F1200 X39.206 Y98.32 E208.79432
G0 F6000 X39.206 Y97.698
G1 F1200 X94.801 Y153.293 E211.67084
G0 F6000 X95.424 Y153.293
G1 F1200 X39.206 Y97.075 E214.5796
G0 F6000 X39.206 Y96.453
G1 F1200 X96.046 Y153.293 E217.52053
G0 F6000 X96.668 Y153.293
G1 F1200 X39.206 Y95.831 E220.49365
G0 F6000 X39.206 Y95.209
G1 F1200 X97.29 Y153.293 E223.49895
G0 F6000 X97.913 Y153.293
G1 F1200 X39.206 Y94.586 E226.53649
G0 F6000 X39.206 Y93.964
G1 F1200 X98.535 Y153.293 E229.60621
G0 F6000 X99.157 Y153.293
G1 F1200 X39.206 Y93.342 E232.70811
G0 F6000 X39.206 Y92.72
G1 F1200 X99.779 Y153.293 E235.8422
G0 F6000 X100.402 Y153.293
G1 F1200 X39.206 Y92.097 E239.00852
G0 F6000 X39.206 Y91.475
G1 F1200 X100.793 Y153.063 E242.19509
G0 F6000 X100.793 Y152.44
G1 F1200 X39.206 Y90.853 E245.38164
G0 F6000 X39.206 Y90.231
G1 F1200 X100.793 Y151.818 E248.56819
G0 F6000 X100.793 Y151.196
G1 F1200 X39.206 Y89.608 E251.75477
G0 F6000 X39.206 Y88.986
G1 F1200 X100.793 Y150.574 E254.94135
G0 F6000 X100.793 Y149.951
G1 F1200 X39.206 Y88.364 E258.1279
G0 F6000 X39.206 Y87.742
G1 F1200 X100.793 Y149.329 E261.31445
G0 F6000 X100.793 Y148.707
G1 F1200 X39.206 Y87.119 E264.50102
G0 F6000 X39.206 Y86.497
G1 F1200 X100.793 Y148.085 E267.6876
G0 F6000 X100.793 Y147.462
G1 F1200 X39.206 Y85.875 E270.87415
G0 F6000 X39.206 Y85.253
G1 F1200 X100.793 Y146.84 E274.0607
G0 F6000 X100.793 Y146.218
G1 F1200 X39.206 Y84.63 E277.24727
G0 F6000 X39.206 Y84.008
G1 F1200 X100.793 Y145.596 E280.43385
G0 F6000 X100.793 Y144.973
G1 F1200 X39.206 Y83.386 E283.6204
G0 F6000 X39.206 Y82.764
G1 F1200 X100.793 Y144.351 E286.80695
G0 F6000 X100.793 Y143.729
G1 F1200 X39.206 Y82.141 E289.99353
G0 F6000 X39.206 Y81.519
G1 F1200 X100.793 Y143.107 E293.1801
G0 F6000 X100.793 Y142.484
G1 F1200 X39.206 Y80.897 E296.36665
G0 F6000 X39.206 Y80.275
G1 F1200 X100.793 Y141.862 E299.5532
G0 F6000 X100.793 Y141.24
G1 F1200 X39.206 Y79.652 E302.73978
G0 F6000 X39.206 Y79.03
G1 F1200 X100.793 Y140.618 E305.92635
G0 F6000 X100.793 Y139.995
G1 F1200 X39.206 Y78.408 E309.1129
G0 F6000 X39.206 Y77.785
G1 F1200 X100.793 Y139.373 E312.29948
G0 F6000 X100.793 Y138.751
G1 F1200 X39.206 Y77.163 E315.48606
G0 F6000 X39.206 Y76.541
G1 F1200 X100.793 Y138.129 E318.67263
G0 F6000 X100.793 Y137.506
G1 F1200 X39.206 Y75.919 E321.85918
G0 F6000 X39.206 Y75.296
G1 F1200 X100.793 Y136.884 E325.04576
G0 F6000 X100.793 Y136.262
G1 F1200 X39.206 Y74.674 E328.23233
G0 F6000 X39.206 Y74.052
G1 F1200 X100.793 Y135.64 E331.41891
G0 F6000 X100.793 Y135.017
G1 F1200 X39.206 Y73.43 E334.60546
G0 F6000 X39.206 Y72.807
G1 F1200 X100.793 Y134.395 E337.79203
G0 F6000 X100.793 Y133.773
G1 F1200 X39.206 Y72.185 E340.97861
G0 F6000 X39.206 Y71.563
G1 F1200 X100.793 Y133.151 E344.16519
G0 F6000 X100.793 Y132.528
G1 F1200 X39.206 Y70.941 E347.35174
G0 F6000 X39.206 Y70.318
G1 F1200 X100.793 Y131.906 E350.53831
G0 F6000 X100.793 Y131.284
G1 F1200 X39.206 Y69.696 E353.72489
G0 F6000 X39.206 Y69.074
