;FLAVOR:Marlin
;TIME:2476
;Filament used: 2.39689m
;Layer height: 0.2
;MINX:75.812
;MINY:76.01
;MINZ:0.24
;MAXX:144.181
;MAXY:143.995
;MAXZ:6.29
;Generated with Cura_SteamEngine 4.2.0
M140 S40
M105
M190 S40
M104 S210
M105
M109 S210
M82 ;absolute extrusion mode
; Ender 3 Custom Start G-code
G28 ; Home all axes
G92 E0 ; Reset Extruder
G1 Z2.0 F3000 ; Move Z Axis up little to prevent scratching of Heat Bed
G1 X0.1 Y20 Z0.3 F5000.0 ; Move to start position
G1 X0.1 Y200.0 Z0.3 F1500.0 E15 ; Draw the first line
G1 X0.4 Y200.0 Z0.3 F5000.0 ; Move to side a little
G1 X0.4 Y20 Z0.3 F1500.0 E30 ; Draw the second line
G92 E0 ; Reset Extruder
G1 Z2.0 F3000 ; Move Z Axis up little to prevent scratching of Heat Bed
G90 ; absolute xyz﻿
M141 S28
G92 E0
G92 E0
G1 F1500 E-5
;LAYER_COUNT:25
;LAYER:-6
M107
G0 F9000 X85.668 Y85.855 Z0.24
;TYPE:SUPPORT-INTERFACE
G1 F1500 E0
G1 F1350 X85.786 Y85.74 E0.01315
G1 X86.435 Y85.156 E0.08285
G1 X86.595 Y85.025 E0.09935
G1 X87.273 Y84.499 E0.16785
G1 X87.425 Y84.39 E0.18278
G1 X88.157 Y83.903 E0.25296
G1 X88.338 Y83.792 E0.26991
G1 X89.078 Y83.374 E0.33775
G1 X89.251 Y83.286 E0.35325
G1 X90.054 Y82.907 E0.42413
G1 X90.225 Y82.834 E0.43897
G1 X91.521 Y82.336 E0.5498
G1 X91.514 Y82.318 E0.55134
G1 X91.659 Y82.256 E0.56393
G1 X92.25 Y81.913 E0.61847
G1 X92.755 Y81.526 E0.66926
G1 X92.764 Y81.535 E0.67027
G1 X93.756 Y80.565 E0.78102
G1 X93.892 Y80.441 E0.79572
G1 X94.693 Y79.771 E0.87907
G1 X95.416 Y79.246 E0.9504
G1 X95.579 Y79.136 E0.96609
G1 X96.336 Y78.667 E1.03718
G1 X96.475 Y78.588 E1.04994
G1 X97.273 Y78.17 E1.12185
G1 X97.425 Y78.097 E1.13531
G1 X98.242 Y77.743 E1.20639
G1 X98.409 Y77.678 E1.22069
G1 X99.484 Y77.31 E1.31139
G1 X101.16 Y76.81 E1.451
G1 X102.123 Y76.557 E1.53048
G1 X103.064 Y76.376 E1.60697
G1 X103.233 Y76.349 E1.62064
G1 X104.121 Y76.245 E1.692
G1 X104.283 Y76.232 E1.70498
G1 X105.19 Y76.191 E1.77745
G1 X105.353 Y76.19 E1.79046
G1 X106.256 Y76.216 E1.86257
G1 X106.419 Y76.227 E1.87562
G1 X107.309 Y76.318 E1.94703
G1 X107.485 Y76.342 E1.96121
G1 X108.358 Y76.497 E2.03199
G1 X108.542 Y76.536 E2.047
G1 X108.692 Y76.574 E2.05935
G1 X109.351 Y76.697 E2.11286
G1 X110.034 Y76.736 E2.16747
G1 X110.71 Y76.689 E2.22156
G1 X111.181 Y76.604 E2.25977
G1 X111.817 Y76.46 E2.31182
G1 X112.017 Y76.423 E2.32806
G1 X112.887 Y76.292 E2.39829
G1 X113.065 Y76.272 E2.41259
G1 X113.936 Y76.205 E2.48232
G1 X114.133 Y76.197 E2.49806
G1 X115.019 Y76.193 E2.56878
G1 X115.18 Y76.199 E2.58164
G1 X116.068 Y76.26 E2.65269
G1 X116.26 Y76.281 E2.66811
G1 X117.285 Y76.433 E2.75083
G1 X118.344 Y76.669 E2.83743
G1 X118.821 Y76.802 E2.87696
G1 X120.597 Y77.337 E3.02502
G1 X121.635 Y77.696 E3.1127
G1 X122.48 Y78.055 E3.18598
G1 X122.62 Y78.121 E3.19834
G1 X123.581 Y78.621 E3.28481
G1 X124.322 Y79.073 E3.3541
G1 X124.495 Y79.188 E3.37068
G1 X125.192 Y79.686 E3.43906
G1 X125.345 Y79.805 E3.45453
G1 X126.041 Y80.383 E3.52675
G1 X126.164 Y80.493 E3.53992
G1 X126.793 Y81.097 E3.60953
G1 X126.901 Y81.21 E3.62201
G1 X127.397 Y81.662 E3.67558
G1 X127.956 Y82.054 E3.73008
G1 X128.555 Y82.369 E3.7841
G1 X128.922 Y82.518 E3.81572
G1 X129.514 Y82.733 E3.86599
G1 X129.687 Y82.803 E3.88089
G1 X130.494 Y83.163 E3.95143
G1 X130.633 Y83.231 E3.96378
G1 X131.429 Y83.661 E4.036
G1 X131.59 Y83.756 E4.05092
G1 X132.339 Y84.232 E4.12176
G1 X132.482 Y84.331 E4.13564
G1 X133.211 Y84.874 E4.2082
G1 X133.315 Y84.958 E4.21888
G1 X134.008 Y85.557 E4.29199
G1 X134.142 Y85.684 E4.30673
G1 X135.148 Y86.725 E4.42229
G1 X136.309 Y88.055 E4.56322
G1 X136.883 Y88.757 E4.6356
G1 X137.435 Y89.527 E4.71123
G1 X137.541 Y89.687 E4.72655
G1 X137.995 Y90.431 E4.79612
G1 X138.075 Y90.572 E4.80906
G1 X138.488 Y91.372 E4.88093
G1 X138.566 Y91.537 E4.8955
G1 X138.971 Y92.499 E4.97882
G1 X139.261 Y93.346 E5.05028
G1 X139.322 Y93.548 E5.06712
G1 X139.541 Y94.384 E5.13611
G1 X139.576 Y94.538 E5.14872
G1 X139.623 Y94.79 E5.16918
G1 X139.787 Y95.439 E5.22261
G1 X140.036 Y96.075 E5.27713
G1 X140.361 Y96.67 E5.33125
G1 X140.615 Y97.037 E5.36688
G1 X141.071 Y97.641 E5.42729
G1 X141.156 Y97.762 E5.4391
G1 X141.651 Y98.528 E5.5119
G1 X141.729 Y98.659 E5.52407
G1 X142.169 Y99.464 E5.5973
G1 X142.24 Y99.606 E5.60997
G1 X142.619 Y100.436 E5.68281
G1 X142.671 Y100.562 E5.69369
G1 X142.991 Y101.426 E5.76723
G1 X143.041 Y101.581 E5.78023
G1 X143.284 Y102.422 E5.85011
G1 X143.336 Y102.637 E5.86777
G1 X143.611 Y104.052 E5.98283
G1 X143.851 Y105.714 E6.11688
G1 X143.937 Y106.447 E6.17579
G1 X143.995 Y107.339 E6.24714
G1 X144.001 Y107.523 E6.26184
G1 X143.995 Y108.427 E6.334
G1 X143.989 Y108.573 E6.34567
G1 X143.899 Y109.632 E6.43051
G1 X143.763 Y110.511 E6.50151
G1 X143.727 Y110.699 E6.51679
G1 X143.524 Y111.581 E6.58903
G1 X143.483 Y111.735 E6.60175
G1 X143.218 Y112.597 E6.67374
G1 X143.166 Y112.744 E6.68619
G1 X142.973 Y113.24 E6.72867
G1 X142.769 Y113.878 E6.78214
G1 X142.645 Y114.55 E6.83669
G1 X142.607 Y115.227 E6.89081
G1 X142.628 Y115.656 E6.9251
G1 X142.682 Y116.32 E6.97828
G1 X142.695 Y117.257 E7.05308
G1 X142.691 Y117.414 E7.06561
G1 X142.64 Y118.287 E7.13542
G1 X142.622 Y118.477 E7.15065
G1 X142.502 Y119.384 E7.22369
G1 X142.476 Y119.533 E7.23576
G1 X142.296 Y120.398 E7.30629
G1 X142.249 Y120.593 E7.3223
G1 X141.963 Y121.576 E7.40402
G1 X141.639 Y122.463 E7.4794
G1 X141.582 Y122.603 E7.49147
G1 X141.346 Y123.145 E7.53865
G1 X140.625 Y124.711 E7.67627
G1 X140.06 Y125.811 E7.77498
G1 X139.579 Y126.603 E7.84895
G1 X139.482 Y126.752 E7.86314
G1 X138.965 Y127.479 E7.93435
G1 X138.85 Y127.629 E7.94944
G1 X138.29 Y128.303 E8.01939
G1 X138.179 Y128.428 E8.03273
G1 X137.544 Y129.09 E8.10596
G1 X137.435 Y129.196 E8.11809
G1 X136.776 Y129.789 E8.18886
G1 X136.604 Y129.932 E8.20672
G1 X135.848 Y130.513 E8.28283
G1 X135.33 Y130.939 E8.33636
G1 X134.861 Y131.435 E8.39085
G1 X134.46 Y131.985 E8.44519
G1 X134.083 Y132.665 E8.50725
G1 X133.627 Y133.436 E8.57875
G1 X133.544 Y133.566 E8.59106
G1 X133.02 Y134.322 E8.66449
G1 X132.917 Y134.459 E8.67817
G1 X132.376 Y135.13 E8.74698
G1 X132.248 Y135.277 E8.76253
G1 X131.645 Y135.923 E8.83308
G1 X131.508 Y136.058 E8.84843
G1 X130.872 Y136.646 E8.91757
G1 X130.724 Y136.773 E8.93314
G1 X130.037 Y137.32 E9.00324
G1 X129.888 Y137.431 E9.01807
G1 X129.135 Y137.949 E9.09102
G1 X127.713 Y138.864 E9.226
G1 X127.182 Y139.191 E9.27578
G1 X126.297 Y139.669 E9.35607
G1 X126.168 Y139.732 E9.36753
G1 X125.322 Y140.113 E9.4416
G1 X125.186 Y140.168 E9.45331
G1 X124.353 Y140.471 E9.52406
G1 X124.164 Y140.532 E9.53992
G1 X123.331 Y140.769 E9.60905
G1 X123.124 Y140.819 E9.62605
G1 X122.127 Y141.019 E9.70722
G1 X121.202 Y141.14 E9.78168
G1 X121.053 Y141.154 E9.79363
G1 X120.509 Y141.185 E9.83712
G1 X119.843 Y141.267 E9.89069
G1 X119.181 Y141.434 E9.94519
G1 X118.637 Y141.648 E9.99185
G1 X118.629 Y141.633 E9.99321
G1 X117.396 Y142.291 E10.10477
G1 X117.237 Y142.368 E10.11887
G1 X116.417 Y142.733 E10.19052
G1 X116.254 Y142.798 E10.20453
G1 X115.43 Y143.094 E10.27442
G1 X115.242 Y143.154 E10.29017
G1 X114.392 Y143.391 E10.36061
G1 X114.23 Y143.43 E10.37391
G1 X113.346 Y143.607 E10.44588
G1 X113.18 Y143.635 E10.45931
G1 X112.292 Y143.746 E10.53075
G1 X112.124 Y143.76 E10.54421
G1 X110.832 Y143.815 E10.64743
G1 X109.073 Y143.812 E10.78784
G1 X107.908 Y143.762 E10.88093
G1 X106.999 Y143.658 E10.95396
G1 X106.812 Y143.63 E10.96905
G1 X105.953 Y143.468 E11.03883
G1 X105.782 Y143.429 E11.05283
G1 X104.901 Y143.195 E11.12559
G1 X104.75 Y143.149 E11.13819
G1 X103.904 Y142.857 E11.20964
G1 X103.736 Y142.793 E11.22399
G1 X102.913 Y142.439 E11.2955
G1 X102.78 Y142.376 E11.30725
G1 X101.973 Y141.958 E11.3798
G1 X101.829 Y141.876 E11.39302
G1 X101.226 Y141.585 E11.44647
G1 X100.579 Y141.367 E11.50097
G1 X99.913 Y141.234 E11.55518
G1 X99.509 Y141.195 E11.58758
G1 X99.322 Y141.184 E11.60253
G1 X98.4 Y141.098 E11.67645
G1 X98.241 Y141.076 E11.68926
G1 X97.389 Y140.933 E11.75823
G1 X97.171 Y140.887 E11.77601
G1 X96.336 Y140.682 E11.84464
G1 X96.161 Y140.633 E11.85915
G1 X95.307 Y140.356 E11.93082
G1 X95.15 Y140.299 E11.94415
G1 X94.301 Y139.954 E12.0173
G1 X94.162 Y139.891 E12.02948
G1 X93.364 Y139.496 E12.10056
G1 X93.206 Y139.411 E12.11488
G1 X92.292 Y138.869 E12.1997
G1 X90.803 Y137.908 E12.34117
G1 X90.02 Y137.362 E12.41737
G1 X89.898 Y137.27 E12.42956
G1 X89.202 Y136.704 E12.50117
G1 X89.063 Y136.582 E12.51594
G1 X88.418 Y135.976 E12.58658
G1 X88.295 Y135.852 E12.60052
G1 X87.592 Y135.078 E12.68399
G1 X86.934 Y134.239 E12.7691
G1 X86.42 Y133.484 E12.84201
G1 X86.333 Y133.345 E12.8551
G1 X85.875 Y132.55 E12.92834
G1 X85.784 Y132.378 E12.94387
G1 X85.434 Y131.806 E12.9974
G1 X85.007 Y131.273 E13.05191
G1 X84.518 Y130.799 E13.10628
G1 X84.523 Y130.793 E13.1069
G1 X83.93 Y130.354 E13.1658
G1 X83.23 Y129.797 E13.2372
G1 X83.083 Y129.671 E13.25266
G1 X82.444 Y129.08 E13.32214
G1 X82.316 Y128.954 E13.33647
G1 X81.691 Y128.287 E13.40944
G1 X81.59 Y128.171 E13.42172
G1 X81.032 Y127.479 E13.49268
G1 X80.933 Y127.347 E13.50585
G1 X80.409 Y126.591 E13.57927
G1 X80.326 Y126.461 E13.59159
G1 X79.866 Y125.683 E13.66373
G1 X79.783 Y125.53 E13.67763
G1 X79.38 Y124.722 E13.7497
G1 X78.626 Y123.078 E13.89408
G1 X78.262 Y122.205 E13.96958
G1 X78.23 Y122.115 E13.9772
G1 X77.937 Y121.247 E14.05033
G1 X77.88 Y121.056 E14.06624
G1 X77.665 Y120.227 E14.13461
G1 X77.625 Y120.038 E14.15003
G1 X77.466 Y119.164 E14.22094
G1 X77.442 Y118.994 E14.23464
G1 X77.345 Y118.084 E14.3077
G1 X77.335 Y117.943 E14.31898
G1 X77.305 Y117.05 E14.3903
G1 X77.306 Y116.873 E14.40443
G1 X77.341 Y115.979 E14.47585
G1 X77.395 Y115.281 E14.53173
G1 X77.38 Y115.281 E14.53293
G1 X77.388 Y115.104 E14.54707
G1 X77.333 Y114.423 E14.60161
G1 X77.191 Y113.755 E14.65612
G1 X77.144 Y113.618 E14.66769
G1 X77.16 Y113.612 E14.66905
G1 X76.923 Y112.99 E14.72218
G1 X76.636 Y112.148 E14.79319
G1 X76.584 Y111.976 E14.80754
G1 X76.356 Y111.101 E14.87971
G1 X76.322 Y110.949 E14.89215
G1 X76.161 Y110.074 E14.96317
G1 X76.134 Y109.886 E14.97833
G1 X76.039 Y109.008 E15.04882
G1 X76.026 Y108.837 E15.06251
G1 X75.993 Y107.793 E15.14589
G1 X76.026 Y106.877 E15.21906
G1 X76.037 Y106.725 E15.23122
G1 X76.15 Y105.704 E15.31322
G1 X76.399 Y103.989 E15.45155
G1 X76.66 Y102.651 E15.56037
G1 X76.91 Y101.746 E15.63532
G1 X76.959 Y101.589 E15.64845
G1 X77.256 Y100.754 E15.71919
G1 X77.317 Y100.599 E15.73249
G1 X77.755 Y99.619 E15.81817
G1 X78.247 Y98.705 E15.90103
G1 X78.745 Y97.912 E15.97578
G1 X78.836 Y97.778 E15.98871
G1 X79.419 Y96.986 E16.06721
G1 X79.781 Y96.422 E16.12071
G1 X80.075 Y95.805 E16.17527
G1 X80.286 Y95.162 E16.22929
G1 X80.337 Y94.93 E16.24825
G1 X80.562 Y93.956 E16.32804
G1 X80.604 Y93.798 E16.34109
G1 X80.867 Y92.947 E16.41219
G1 X80.92 Y92.794 E16.42512
G1 X81.254 Y91.937 E16.49854
G1 X81.32 Y91.784 E16.51184
G1 X81.706 Y90.974 E16.58347
G1 X81.78 Y90.833 E16.59618
G1 X82.223 Y90.057 E16.6675
G1 X82.311 Y89.913 E16.68097
G1 X82.816 Y89.161 E16.75328
G1 X82.916 Y89.025 E16.76676
G1 X83.689 Y88.055 E16.86577
G1 X84.999 Y86.552 E17.02492
G1 X85.668 Y85.855 E17.10204
G0 F9000 X86.4 Y85.187
G1 F1350 X86.4 Y133.452 E20.95476
G1 F1500 E15.95476
G1 F300 Z0.44
G0 F9000 X88 Y135.527 Z0.44
G1 F300 Z0.24
G1 F1500 E20.95476
G1 F1350 X88 Y84.007 E25.06731
G1 F1500 E20.06731
G1 F300 Z0.44
G0 F9000 X89.6 Y83.121 Z0.44
G1 F300 Z0.24
G1 F1500 E25.06731
G1 F1350 X89.6 Y137.027 E29.37032
G1 F1500 E24.37032
G1 F300 Z0.44
G0 F9000 X91.2 Y138.164 Z0.44
G1 F300 Z0.24
G1 F1500 E29.37032
G1 F1350 X91.2 Y82.459 E33.81693
G1 F1500 E28.81693
G1 F300 Z0.44
G0 F9000 X92.8 Y81.499 Z0.44
G1 F300 Z0.24
G1 F1500 E33.81693
G1 F1350 X92.8 Y139.17 E38.42048
G1 F1500 E33.42048
G1 F300 Z0.44
G0 F9000 X94.4 Y139.994 Z0.44
G1 F300 Z0.24
G1 F1500 E38.42048
G1 F1350 X94.4 Y80.016 E43.20818
G1 F1500 E38.20818
G1 F300 Z0.44
G0 F9000 X96 Y78.875 Z0.44
G1 F300 Z0.24
G1 F1500 E43.20818
G1 F1350 X96 Y140.58 E48.13374
G1 F1500 E43.13374
G1 F300 Z0.44
G0 F9000 X97.6 Y140.968 Z0.44
G1 F300 Z0.24
G1 F1500 E48.13374
G1 F1350 X97.6 Y78.021 E53.15844
G1 F1500 E48.15844
G1 F300 Z0.44
G0 F9000 X99.2 Y77.407 Z0.44
G1 F300 Z0.24
G1 F1500 E53.15844
G1 F1350 X99.2 Y141.172 E58.24844
G1 F1500 E53.24844
G1 F300 Z0.44
G0 F9000 X100.8 Y141.441 Z0.44
G1 F300 Z0.24
G1 F1500 E58.24844
G1 F1350 X100.8 Y76.917 E63.39903
G1 F1500 E58.39903
G1 F300 Z0.44
G0 F9000 X102.4 Y76.503 Z0.44
G1 F300 Z0.24
G1 F1500 E63.39903
G1 F1350 X102.4 Y142.179 E68.64157
G1 F1500 E63.64157
G1 F300 Z0.44
G0 F9000 X104 Y142.89 Z0.44
G1 F300 Z0.24
G1 F1500 E68.64157
G1 F1350 X104 Y76.259 E73.96034
G1 F1500 E68.96034
G1 F300 Z0.44
G0 F9000 X105.6 Y76.198 Z0.44
G1 F300 Z0.24
G1 F1500 E73.96034
G1 F1350 X105.6 Y143.38 E79.3231
G1 F1500 E74.3231
G1 F300 Z0.44
G0 F9000 X107.2 Y143.68 Z0.44
G1 F300 Z0.24
G1 F1500 E79.3231
G1 F1350 X107.2 Y76.307 E84.70111
G1 F1500 E79.70111
G1 F300 Z0.44
G0 F9000 X108.8 Y76.595 Z0.44
G1 F300 Z0.24
G1 F1500 E84.70111
G1 F1350 X108.8 Y143.8 E90.0657
G1 F1500 E85.0657
G1 F300 Z0.44
G0 F9000 X110.4 Y143.814 Z0.44
G1 F300 Z0.24
G1 F1500 E90.0657
G1 F1350 X110.4 Y76.71 E95.42223
G1 F1500 E90.42223
G1 F300 Z0.44
G0 F9000 X112 Y76.426 Z0.44
G1 F300 Z0.24
G1 F1500 E95.42223
G1 F1350 X112 Y143.766 E100.7976
G1 F1500 E95.7976
G1 F300 Z0.44
G0 F9000 X113.6 Y143.557 Z0.44
G1 F300 Z0.24
G1 F1500 E100.7976
G1 F1350 X113.6 Y76.23 E106.17193
G1 F1500 E101.17193
G1 F300 Z0.44
G0 F9000 X115.2 Y76.201 Z0.44
G1 F300 Z0.24
G1 F1500 E106.17193
G1 F1350 X115.2 Y143.166 E111.51737
G1 F1500 E106.51737
G1 F300 Z0.44
G0 F9000 X116.8 Y142.563 Z0.44
G1 F300 Z0.24
G1 F1500 E111.51737
G1 F1350 X116.8 Y76.362 E116.80182
G1 F1500 E111.80182
G1 F300 Z0.44
G0 F9000 X118.4 Y76.685 Z0.44
G1 F300 Z0.24
G1 F1500 E116.80182
G1 F1350 X118.4 Y141.756 E121.99607
G1 F1500 E116.99607
G1 F300 Z0.44
G0 F9000 X120 Y141.248 Z0.44
G1 F300 Z0.24
G1 F1500 E121.99607
G1 F1350 X120 Y77.158 E127.11201
G1 F1500 E122.11201
G1 F300 Z0.44
G0 F9000 X121.6 Y77.684 Z0.44
G1 F300 Z0.24
G1 F1500 E127.11201
G1 F1350 X121.6 Y141.088 E132.17319
G1 F1500 E127.17319
G1 F300 Z0.44
G0 F9000 X123.2 Y140.801 Z0.44
G1 F300 Z0.24
G1 F1500 E132.17319
G1 F1350 X123.2 Y78.423 E137.15247
G1 F1500 E132.15247
G1 F300 Z0.44
G0 F9000 X124.8 Y79.406 Z0.44
G1 F300 Z0.24
G1 F1500 E137.15247
G1 F1350 X124.8 Y140.309 E142.01401
G1 F1500 E137.01401
G1 F300 Z0.44
G0 F9000 X126.4 Y139.614 Z0.44
G1 F300 Z0.24
G1 F1500 E142.01401
G1 F1350 X126.4 Y80.72 E146.71519
G1 F1500 E141.71519
G1 F300 Z0.44
G0 F9000 X128 Y82.078 Z0.44
G1 F300 Z0.24
G1 F1500 E146.71519
G1 F1350 X128 Y138.68 E151.2334
G1 F1500 E146.2334
G1 F300 Z0.44
G0 F9000 X129.6 Y137.63 Z0.44
G1 F300 Z0.24
G1 F1500 E151.2334
G1 F1350 X129.6 Y82.768 E155.61272
G1 F1500 E150.61272
G1 F300 Z0.44
G0 F9000 X131.2 Y83.538 Z0.44
G1 F300 Z0.24
G1 F1500 E155.61272
G1 F1350 X131.2 Y136.343 E159.82785
G1 F1500 E154.82785
G1 F300 Z0.44
G0 F9000 X132.8 Y134.605 Z0.44
G1 F300 Z0.24
G1 F1500 E159.82785
G1 F1350 X132.8 Y84.568 E163.82202
G1 F1500 E158.82202
G1 F300 Z0.44
G0 F9000 X134.4 Y85.951 Z0.44
G1 F300 Z0.24
G1 F1500 E163.82202
G1 F1350 X134.4 Y132.094 E167.50535
G1 F1500 E162.50535
G1 F300 Z0.44
G0 F9000 X136 Y130.397 Z0.44
G1 F300 Z0.24
G1 F1500 E167.50535
G1 F1350 X136 Y87.702 E170.91345
G1 F1500 E165.91345
G1 F300 Z0.44
G0 F9000 X137.6 Y89.784 Z0.44
G1 F300 Z0.24
G1 F1500 E170.91345
G1 F1350 X137.6 Y129.032 E174.0464
G1 F1500 E169.0464
G1 F300 Z0.44
G0 F9000 X139.2 Y127.149 Z0.44
G1 F300 Z0.24
G1 F1500 E174.0464
G1 F1350 X139.2 Y93.168 E176.75891
G1 F1500 E171.75891
G1 F300 Z0.44
G0 F9000 X140.8 Y97.283 Z0.44
G1 F300 Z0.24
G1 F1500 E176.75891
G1 F1350 X140.8 Y124.331 E178.91799
G1 F1500 E173.91799
G1 F300 Z0.44
G0 F9000 X142.4 Y119.899 Z0.44
G1 F300 Z0.24
G1 F1500 E178.91799
G1 F1350 X142.4 Y99.957 E180.50985
G1 F1500 E175.50985
G1 F300 Z0.44
G0 F9000 X144 Y107.493 Z0.44
G1 F300 Z0.24
G1 F1500 E180.50985
G1 F1350 X144 Y107.674 E180.5243
G1 F1500 E175.5243
G1 F300 Z0.44
G0 F9000 X84.8 Y86.78 Z0.44
G1 F300 Z0.24
G1 F1500 E180.5243
G1 F1350 X84.8 Y131.072 E184.05988
G1 F1500 E179.05988
G1 F300 Z0.44
G0 F9000 X83.2 Y129.771 Z0.44
G1 F300 Z0.24
G1 F1500 E184.05988
G1 F1350 X83.2 Y88.668 E187.3409
G1 F1500 E182.3409
G1 F300 Z0.44
G0 F9000 X81.6 Y91.196 Z0.44
G1 F300 Z0.24
G1 F1500 E187.3409
