;FLAVOR:Marlin
;TIME:10443
;Filament used: 9.34613m
;Layer height: 0.2
;MINX:13.755
;MINY:48.34
;MINZ:0.2
;MAXX:206.245
;MAXY:171.66
;MAXZ:10.2
;Generated with Cura_SteamEngine 4.2.0
M140 S50
M105
M190 S50
M104 S210
M105
M109 S210
M82 ;absolute extrusion mode
; Ender 3 Custom Start G-code
G28 ; Home all axes
G92 E0 ; Reset Extruder
G1 Z2.0 F3000 ; Move Z Axis up little to prevent scratching of Heat Bed
G1 X0.1 Y20 Z0.3 F5000.0 ; Move to start position
G1 X0.1 Y200.0 Z0.3 F1500.0 E15 ; Draw the first line
G1 X0.4 Y200.0 Z0.3 F5000.0 ; Move to side a little
G1 X0.4 Y20 Z0.3 F1500.0 E30 ; Draw the second line
G92 E0 ; Reset Extruder
G1 Z2.0 F3000 ; Move Z Axis up little to prevent scratching of Heat Bed
G90 ; absolute xyz﻿
M141 S28
G92 E0
G92 E0
G1 F1500 E-5
;LAYER_COUNT:50
;LAYER:0
M107
G0 F6000 X27.649 Y74.151 Z0.2
;TYPE:SKIRT
G1 F1500 E0
G1 F1200 X28.341 Y73.903 E0.02689
G1 X29.501 Y73.56 E0.07115
G1 X30.255 Y73.383 E0.09949
G1 X30.546 Y73.319 E0.11039
G1 X31.247 Y73.175 E0.13657
G1 X32.458 Y72.998 E0.18135
G1 X33.22 Y72.931 E0.20933
G1 X33.352 Y72.92 E0.21418
G1 X35.627 Y72.748 E0.29765
G1 X38.159 Y72.493 E0.39075
G1 X40.648 Y72.17 E0.48258
G1 X43.123 Y71.777 E0.57427
G1 X45.652 Y71.303 E0.6684
G1 X48.063 Y70.779 E0.75867
G1 X50.547 Y70.166 E0.85228
G1 X52.991 Y69.489 E0.94506
G1 X55.412 Y68.744 E1.03774
G1 X57.78 Y67.941 E1.12922
G1 X60.173 Y67.054 E1.22259
G1 X62.517 Y66.108 E1.31507
G1 X64.831 Y65.097 E1.40746
G1 X67.1 Y64.029 E1.49921
G1 X69.356 Y62.887 E1.59172
G1 X71.59 Y61.677 E1.68467
G1 X73.759 Y60.421 E1.77637
G1 X75.925 Y59.083 E1.86952
G1 X78.043 Y57.691 E1.96224
G1 X80.109 Y56.246 E2.05448
G1 X82.132 Y54.747 E2.1466
G1 X84.128 Y53.178 E2.23949
G1 X85.401 Y52.118 E2.30009
G1 X85.457 Y52.071 E2.30277
G1 X86.385 Y51.309 E2.3467
G1 X87.123 Y50.755 E2.38046
G1 X87.783 Y50.338 E2.40902
G1 X88.049 Y50.183 E2.42029
G1 X88.398 Y49.988 E2.43492
G1 X88.651 Y49.853 E2.44541
G1 X89.483 Y49.454 E2.47917
G1 X90.335 Y49.133 E2.51248
G1 X90.745 Y48.998 E2.52827
G1 X91.634 Y48.747 E2.56207
G1 X92.37 Y48.601 E2.58952
G1 X92.961 Y48.505 E2.61142
G1 X93.878 Y48.396 E2.64521
G1 X94.452 Y48.369 E2.66623
G1 X95.675 Y48.344 E2.71099
G1 X95.893 Y48.342 E2.71896
G1 X191.607 Y48.34 E6.22077
G1 X191.878 Y48.34 E6.23068
G1 X192.031 Y48.341 E6.23628
G1 X192.729 Y48.351 E6.26182
G1 X193.553 Y48.395 E6.29201
G1 X193.792 Y48.417 E6.30079
G1 X194.388 Y48.489 E6.32276
G1 X194.904 Y48.566 E6.34184
G1 X195.811 Y48.741 E6.37564
G1 X196.698 Y48.995 E6.4094
G1 X197.211 Y49.18 E6.42935
G1 X197.733 Y49.384 E6.44985
G1 X198.075 Y49.525 E6.46339
G1 X198.279 Y49.613 E6.47152
G1 X199.11 Y50.015 E6.50529
G1 X199.904 Y50.487 E6.53908
G1 X200.399 Y50.833 E6.56118
G1 X200.834 Y51.155 E6.58098
G1 X201.064 Y51.33 E6.59155
G1 X201.253 Y51.478 E6.60034
G1 X201.955 Y52.078 E6.63412
G1 X202.602 Y52.737 E6.66791
G1 X203.029 Y53.241 E6.69208
G1 X203.357 Y53.654 E6.71137
G1 X203.558 Y53.916 E6.72346
G1 X203.704 Y54.112 E6.7324
G1 X204.223 Y54.876 E6.76619
G1 X204.674 Y55.681 E6.79995
G1 X204.932 Y56.232 E6.82221
G1 X205.174 Y56.789 E6.84443
G1 X205.299 Y57.088 E6.85628
G1 X205.368 Y57.261 E6.8631
G1 X205.672 Y58.132 E6.89685
G1 X205.9 Y59.027 E6.93064
G1 X206.007 Y59.621 E6.95272
G1 X206.078 Y60.092 E6.97015
G1 X206.125 Y60.441 E6.98303
G1 X206.162 Y60.757 E6.99467
G1 X206.228 Y61.635 E7.02688
G1 X206.237 Y61.9 E7.03659
G1 X206.243 Y62.262 E7.04983
G1 X206.245 Y157.293 E10.52665
G1 X206.244 Y157.446 E10.53225
G1 X206.234 Y158.143 E10.55775
G1 X206.191 Y158.96 E10.58768
G1 X206.172 Y159.168 E10.59532
G1 X206.108 Y159.708 E10.61522
G1 X206.029 Y160.26 E10.63562
G1 X205.859 Y161.168 E10.66942
G1 X205.611 Y162.057 E10.70319
G1 X205.391 Y162.667 E10.72691
G1 X205.197 Y163.158 E10.74622
G1 X205.097 Y163.403 E10.75591
G1 X205.002 Y163.627 E10.76481
G1 X204.605 Y164.461 E10.7986
G1 X204.137 Y165.257 E10.83238
G1 X203.753 Y165.811 E10.85705
G1 X203.407 Y166.278 E10.87831
G1 X203.235 Y166.505 E10.88873
G1 X203.105 Y166.671 E10.89644
G1 X202.504 Y167.372 E10.93023
G1 X201.846 Y168.019 E10.96399
G1 X201.336 Y168.45 E10.98842
G1 X200.925 Y168.776 E11.00761
G1 X200.677 Y168.967 E11.01906
G1 X200.476 Y169.117 E11.02824
G1 X199.712 Y169.637 E11.06205
G1 X198.907 Y170.089 E11.09583
G1 X198.355 Y170.348 E11.11814
G1 X197.852 Y170.567 E11.13821
G1 X197.564 Y170.687 E11.14962
G1 X197.352 Y170.772 E11.15798
G1 X196.481 Y171.078 E11.19176
G1 X195.587 Y171.308 E11.22553
G1 X194.965 Y171.42 E11.24865
G1 X194.418 Y171.502 E11.26889
G1 X194.094 Y171.546 E11.28085
G1 X193.858 Y171.574 E11.28954
G1 X193.017 Y171.64 E11.32041
G1 X192.735 Y171.651 E11.33073
G1 X192.32 Y171.659 E11.34592
G1 X95.451 Y171.66 E14.88998
G1 X95.298 Y171.659 E14.89558
G1 X94.672 Y171.65 E14.91849
G1 X93.727 Y171.594 E14.95312
G1 X93.109 Y171.53 E14.97585
G1 X92.196 Y171.396 E15.00961
G1 X91.603 Y171.264 E15.03184
G1 X91.202 Y171.163 E15.04697
G1 X90.318 Y170.899 E15.08072
G1 X89.836 Y170.719 E15.09955
G1 X89.37 Y170.532 E15.11792
G1 X88.529 Y170.152 E15.15168
G1 X87.463 Y169.533 E15.19678
G1 X87.236 Y169.383 E15.20674
G1 X86.857 Y169.12 E15.22361
G1 X86.479 Y168.846 E15.24069
G1 X86.348 Y168.75 E15.24664
G1 X84.183 Y167.13 E15.34556
G1 X82.112 Y165.672 E15.43823
G1 X80.007 Y164.276 E15.53064
G1 X77.892 Y162.959 E15.62179
G1 X75.675 Y161.665 E15.71571
G1 X73.486 Y160.466 E15.80702
G1 X71.232 Y159.315 E15.89962
G1 X68.919 Y158.215 E15.99333
G1 X66.647 Y157.213 E16.08417
G1 X64.275 Y156.245 E16.1779
G1 X61.935 Y155.366 E16.26936
G1 X59.527 Y154.539 E16.36251
G1 X57.142 Y153.794 E16.45392
G1 X54.682 Y153.102 E16.54742
G1 X52.217 Y152.483 E16.6404
G1 X49.767 Y151.942 E16.7322
G1 X47.279 Y151.465 E16.82488
G1 X44.808 Y151.064 E16.91647
G1 X42.294 Y150.728 E17.00927
G1 X39.767 Y150.463 E17.10223
G1 X37.229 Y150.269 E17.19535
G1 X35.434 Y150.175 E17.26111
G1 X34.101 Y150.118 E17.30993
G1 X33.816 Y150.102 E17.32037
G1 X33.37 Y150.071 E17.33673
G1 X33.202 Y150.058 E17.34289
G1 X32.546 Y150.002 E17.36698
G1 X31.357 Y149.833 E17.41092
G1 X30.624 Y149.686 E17.43827
G1 X30.31 Y149.618 E17.45003
G1 X29.569 Y149.446 E17.47786
G1 X28.419 Y149.11 E17.52169
G1 X27.705 Y148.857 E17.5494
G1 X27.419 Y148.751 E17.56056
G1 X26.734 Y148.486 E17.58743
G1 X25.633 Y147.986 E17.63167
G1 X24.986 Y147.647 E17.6584
G1 X24.719 Y147.503 E17.6695
G1 X24.045 Y147.125 E17.69777
G1 X23.007 Y146.461 E17.74285
G1 X22.358 Y145.991 E17.77217
G1 X22.1 Y145.798 E17.78396
G1 X21.558 Y145.38 E17.809
G1 X20.657 Y144.601 E17.85257
G1 X20.137 Y144.098 E17.87904
G1 X19.935 Y143.897 E17.88947
G1 X19.395 Y143.346 E17.9177
G1 X18.575 Y142.406 E17.96333
G1 X18.118 Y141.815 E17.99067
G1 X17.951 Y141.592 E18.00086
G1 X17.516 Y140.998 E18.02779
G1 X16.857 Y139.983 E18.07207
G1 X16.481 Y139.324 E18.09983
G1 X16.321 Y139.032 E18.11201
G1 X15.966 Y138.362 E18.13975
G1 X15.46 Y137.26 E18.18412
G1 X15.183 Y136.553 E18.2119
G1 X15.072 Y136.258 E18.22343
G1 X14.822 Y135.56 E18.25055
G1 X14.478 Y134.394 E18.29503
G1 X14.303 Y133.646 E18.32314
G1 X14.243 Y133.371 E18.33344
G1 X14.097 Y132.663 E18.35988
G1 X13.918 Y131.447 E18.40485
G1 X13.855 Y130.733 E18.43108
G1 X13.833 Y130.427 E18.4423
G1 X13.786 Y129.635 E18.47133
G1 X13.772 Y129.332 E18.48242
G1 X13.763 Y129.04 E18.49311
G1 X13.758 Y128.715 E18.505
G1 X13.755 Y116.212 E18.96244
G1 X13.756 Y116.054 E18.96822
G1 X13.771 Y115.021 E19.00602
G1 X13.774 Y114.883 E19.01107
G1 X13.832 Y112.775 E19.08822
G1 X13.83 Y110.196 E19.18258
G1 X13.801 Y108.897 E19.23012
G1 X13.76 Y107.501 E19.28121
G1 X13.755 Y107.189 E19.29263
G1 X13.755 Y94.7 E19.74955
G1 X13.756 Y94.549 E19.75508
G1 X13.766 Y93.844 E19.78087
G1 X13.774 Y93.547 E19.79174
G1 X13.788 Y93.214 E19.80394
G1 X13.805 Y92.917 E19.81482
G1 X13.838 Y92.446 E19.8321
G1 X13.851 Y92.277 E19.8383
G1 X13.908 Y91.615 E19.86261
G1 X14.078 Y90.43 E19.9064
G1 X14.227 Y89.688 E19.93409
G1 X14.292 Y89.387 E19.94536
G1 X14.46 Y88.66 E19.97266
G1 X14.798 Y87.5 E20.01686
G1 X15.052 Y86.783 E20.04469
G1 X15.157 Y86.5 E20.05574
G1 X15.421 Y85.817 E20.08253
G1 X15.921 Y84.713 E20.12687
G1 X16.261 Y84.064 E20.15367
G1 X16.404 Y83.801 E20.16463
G1 X16.781 Y83.128 E20.19285
G1 X17.452 Y82.079 E20.23841
G1 X17.909 Y81.449 E20.26688
G1 X18.091 Y81.206 E20.27799
G1 X18.519 Y80.65 E20.30366
G1 X19.293 Y79.752 E20.34703
G1 X19.807 Y79.219 E20.37412
G1 X20.034 Y78.991 E20.3859
G1 X20.579 Y78.459 E20.41376
G1 X21.491 Y77.664 E20.45802
G1 X22.102 Y77.19 E20.48632
G1 X22.344 Y77.008 E20.49739
G1 X22.917 Y76.589 E20.52337
G1 X23.926 Y75.935 E20.56736
G1 X24.585 Y75.559 E20.59512
G1 X24.877 Y75.399 E20.6073
G1 X25.547 Y75.044 E20.63504
G1 X26.649 Y74.538 E20.6794
G1 X27.356 Y74.261 E20.70718
G1 X27.649 Y74.151 E20.71863
G0 F6000 X27.797 Y74.565
G1 F1200 X28.489 Y74.317 E20.74553
G1 X29.601 Y73.988 E20.78796
G1 X30.355 Y73.811 E20.81629
G1 X30.635 Y73.75 E20.82678
G1 X31.336 Y73.606 E20.85296
G1 X32.497 Y73.436 E20.89589
G1 X33.259 Y73.369 E20.92387
G1 X33.385 Y73.359 E20.9285
G1 X35.665 Y73.187 E21.01215
G1 X38.187 Y72.932 E21.10489
G1 X40.7 Y72.606 E21.1976
G1 X43.241 Y72.203 E21.29173
G1 X45.728 Y71.737 E21.38431
G1 X48.148 Y71.211 E21.47491
G1 X50.663 Y70.591 E21.56968
G1 X53.131 Y69.907 E21.66338
G1 X55.543 Y69.165 E21.75571
G1 X57.936 Y68.353 E21.84816
G1 X60.321 Y67.468 E21.94123
G1 X62.676 Y66.519 E22.03412
G1 X65.013 Y65.498 E22.12743
G1 X67.289 Y64.426 E22.21947
G1 X69.567 Y63.274 E22.31287
G1 X71.825 Y62.05 E22.40684
G1 X74.001 Y60.79 E22.49883
G1 X76.146 Y59.465 E22.59107
G1 X78.284 Y58.059 E22.68469
G1 X80.371 Y56.6 E22.77786
G1 X82.391 Y55.104 E22.86982
G1 X84.389 Y53.533 E22.96281
G1 X85.682 Y52.456 E23.02438
G1 X85.736 Y52.412 E23.02693
G1 X86.664 Y51.65 E23.07086
G1 X87.388 Y51.107 E23.10397
G1 X88.005 Y50.718 E23.13065
G1 X88.271 Y50.563 E23.14192
G1 X88.605 Y50.376 E23.15592
G1 X88.858 Y50.241 E23.16641
G1 X89.673 Y49.851 E23.19947
G1 X90.473 Y49.551 E23.23073
G1 X90.883 Y49.416 E23.24652
G1 X91.753 Y49.171 E23.27959
G1 X92.44 Y49.035 E23.30521
G1 X93.031 Y48.939 E23.32712
G1 X93.929 Y48.834 E23.3602
G1 X94.461 Y48.809 E23.37968
G1 X95.684 Y48.784 E23.42443
G1 X95.893 Y48.782 E23.43208
G1 X191.607 Y48.78 E26.93389
G1 X191.878 Y48.78 E26.9438
G1 X192.024 Y48.781 E26.94914
G1 X192.722 Y48.791 E26.97468
G1 X193.513 Y48.833 E27.00366
G1 X193.752 Y48.855 E27.01245
G1 X194.323 Y48.924 E27.03349
G1 X194.839 Y49.001 E27.05258
G1 X195.727 Y49.174 E27.08568
G1 X196.595 Y49.424 E27.11872
G1 X197.051 Y49.59 E27.13648
G1 X197.573 Y49.794 E27.15698
G1 X197.901 Y49.929 E27.16996
G1 X198.105 Y50.017 E27.17809
G1 X198.918 Y50.411 E27.21114
G1 X199.694 Y50.876 E27.24424
G1 X200.138 Y51.187 E27.26407
G1 X200.573 Y51.509 E27.28387
G1 X200.793 Y51.676 E27.29398
G1 X200.982 Y51.824 E27.30276
G1 X201.668 Y52.413 E27.33584
G1 X202.3 Y53.059 E27.3689
G1 X202.684 Y53.515 E27.39071
G1 X203.012 Y53.928 E27.41001
G1 X203.205 Y54.179 E27.42159
G1 X203.351 Y54.375 E27.43054
G1 X203.858 Y55.123 E27.4636
G1 X204.298 Y55.913 E27.49668
G1 X204.529 Y56.407 E27.51663
G1 X204.771 Y56.964 E27.53885
G1 X204.89 Y57.251 E27.55022
G1 X204.959 Y57.424 E27.55703
G1 X205.256 Y58.278 E27.59011
G1 X205.477 Y59.154 E27.62317
G1 X205.572 Y59.687 E27.64297
G1 X205.643 Y60.158 E27.6604
G1 X205.688 Y60.492 E27.67273
G1 X205.725 Y60.808 E27.68437
G1 X205.788 Y61.65 E27.71526
G1 X205.797 Y61.915 E27.72496
G1 X205.803 Y62.262 E27.73766
G1 X205.805 Y157.293 E31.21448
G1 X205.804 Y157.44 E31.21986
G1 X205.794 Y158.137 E31.24536
G1 X205.753 Y158.92 E31.27405
G1 X205.734 Y159.128 E31.28169
G1 X205.673 Y159.646 E31.30077
G1 X205.594 Y160.198 E31.32117
G1 X205.426 Y161.086 E31.35424
G1 X205.181 Y161.956 E31.38731
G1 X204.982 Y162.506 E31.4087
G1 X204.788 Y162.997 E31.42802
G1 X204.692 Y163.231 E31.43727
G1 X204.597 Y163.455 E31.44617
G1 X204.207 Y164.271 E31.47926
G1 X203.747 Y165.049 E31.51233
G1 X203.4 Y165.549 E31.5346
G1 X203.054 Y166.016 E31.55586
G1 X202.888 Y166.233 E31.56586
G1 X202.758 Y166.399 E31.57357
G1 X202.17 Y167.086 E31.60666
G1 X201.523 Y167.717 E31.63972
G1 X201.063 Y168.105 E31.66174
G1 X200.652 Y168.431 E31.68093
G1 X200.413 Y168.615 E31.69197
G1 X200.212 Y168.765 E31.70114
G1 X199.465 Y169.273 E31.73419
G1 X198.675 Y169.713 E31.76728
G1 X198.18 Y169.944 E31.78726
G1 X197.677 Y170.163 E31.80733
G1 X197.4 Y170.279 E31.81832
G1 X197.188 Y170.364 E31.82668
G1 X196.335 Y170.663 E31.85975
G1 X195.459 Y170.885 E31.89281
G1 X194.9 Y170.985 E31.91358
G1 X194.353 Y171.067 E31.93382
G1 X194.042 Y171.109 E31.9453
G1 X193.806 Y171.137 E31.954
G1 X193 Y171.2 E31.98358
G1 X192.718 Y171.211 E31.9939
G1 X192.32 Y171.219 E32.00847
G1 X95.451 Y171.22 E35.55253
G1 X95.304 Y171.219 E35.55791
G1 X94.678 Y171.21 E35.58081
G1 X93.772 Y171.157 E35.61402
G1 X93.154 Y171.093 E35.63675
G1 X92.26 Y170.96 E35.66982
G1 X91.711 Y170.837 E35.6904
G1 X91.31 Y170.736 E35.70553
G1 X90.444 Y170.477 E35.7386
G1 X90 Y170.311 E35.75594
G1 X89.534 Y170.124 E35.77431
G1 X88.711 Y169.75 E35.80739
G1 X87.706 Y169.166 E35.84991
G1 X87.479 Y169.016 E35.85987
G1 X87.115 Y168.764 E35.87606
G1 X86.737 Y168.49 E35.89314
G1 X86.612 Y168.397 E35.89884
G1 X84.448 Y166.777 E35.99774
G1 X82.374 Y165.317 E36.09054
G1 X80.272 Y163.924 E36.1828
G1 X78.095 Y162.567 E36.27665
G1 X75.898 Y161.285 E36.36972
G1 X73.687 Y160.074 E36.46195
G1 X71.41 Y158.912 E36.55547
G1 X69.117 Y157.821 E36.64838
G1 X66.809 Y156.803 E36.74067
G1 X64.444 Y155.838 E36.83412
G1 X62.093 Y154.956 E36.92599
G1 X59.662 Y154.12 E37.02004
G1 X57.253 Y153.367 E37.11238
G1 X54.802 Y152.678 E37.20553
G1 X52.32 Y152.055 E37.29915
G1 X49.865 Y151.513 E37.39114
G1 X47.36 Y151.033 E37.48445
G1 X44.87 Y150.628 E37.57675
G1 X42.326 Y150.288 E37.67065
G1 X39.813 Y150.025 E37.76309
G1 X37.284 Y149.832 E37.85589
G1 X35.474 Y149.737 E37.9222
G1 X34.12 Y149.679 E37.97178
G1 X33.846 Y149.663 E37.98183
G1 X33.4 Y149.632 E37.99818
G1 X33.24 Y149.62 E38.00405
G1 X32.584 Y149.564 E38.02814
G1 X31.443 Y149.401 E38.07031
G1 X30.71 Y149.254 E38.09766
G1 X30.409 Y149.189 E38.10893
G1 X29.668 Y149.017 E38.13676
G1 X28.566 Y148.695 E38.17876
G1 X27.852 Y148.442 E38.20648
G1 X27.578 Y148.341 E38.21716
G1 X26.893 Y148.076 E38.24403
G1 X25.837 Y147.597 E38.28646
G1 X25.19 Y147.258 E38.31318
G1 X24.934 Y147.119 E38.32384
G1 X24.26 Y146.741 E38.35211
G1 X23.265 Y146.104 E38.39533
G1 X22.616 Y145.634 E38.42465
G1 X22.369 Y145.45 E38.43592
G1 X21.827 Y145.032 E38.46096
G1 X20.962 Y144.285 E38.50278
G1 X20.442 Y143.782 E38.52924
G1 X20.249 Y143.589 E38.53923
G1 X19.709 Y143.038 E38.56746
G1 X18.923 Y142.137 E38.6112
G1 X18.466 Y141.546 E38.63853
G1 X18.306 Y141.332 E38.64831
G1 X17.871 Y140.738 E38.67525
G1 X17.239 Y139.765 E38.71769
G1 X16.863 Y139.106 E38.74545
G1 X16.709 Y138.826 E38.75714
G1 X16.354 Y138.156 E38.78489
G1 X15.869 Y137.099 E38.82743
G1 X15.592 Y136.392 E38.85521
G1 X15.487 Y136.11 E38.86622
G1 X15.237 Y135.412 E38.89335
G1 X14.907 Y134.294 E38.936
G1 X14.732 Y133.546 E38.9641
G1 X14.674 Y133.282 E38.97399
G1 X14.528 Y132.574 E39.00044
G1 X14.357 Y131.408 E39.04356
G1 X14.294 Y130.694 E39.06978
G1 X14.272 Y130.401 E39.08053
G1 X14.225 Y129.609 E39.10956
G1 X14.212 Y129.319 E39.12018
G1 X14.203 Y129.027 E39.13087
G1 X14.198 Y128.714 E39.14232
G1 X14.195 Y116.211 E39.59976
G1 X14.196 Y116.061 E39.60524
G1 X14.211 Y115.028 E39.64304
G1 X14.214 Y114.895 E39.64791
G1 X14.272 Y112.786 E39.7251
G1 X14.27 Y110.187 E39.82019
G1 X14.243 Y108.958 E39.86516
G1 X14.242 Y108.958 E39.8652
G1 X14.199 Y107.488 E39.919
G1 X14.195 Y107.189 E39.92994
G1 X14.195 Y94.7 E40.38687
G1 X14.196 Y94.555 E40.39217
G1 X14.206 Y93.85 E40.41797
G1 X14.214 Y93.566 E40.42836
G1 X14.228 Y93.233 E40.44056
G1 X14.244 Y92.948 E40.451
G1 X14.277 Y92.477 E40.46827
G1 X14.29 Y92.314 E40.47426
G1 X14.347 Y91.652 E40.49857
G1 X14.509 Y90.517 E40.54051
G1 X14.658 Y89.775 E40.5682
G1 X14.72 Y89.486 E40.57901
G1 X14.888 Y88.759 E40.60631
G1 X15.213 Y87.647 E40.6487
G1 X15.467 Y86.93 E40.67653
G1 X15.567 Y86.658 E40.68713
G1 X15.831 Y85.975 E40.71392
G1 X16.311 Y84.917 E40.75643
G1 X16.651 Y84.268 E40.78323
G1 X16.788 Y84.016 E40.79373
G1 X17.165 Y83.343 E40.82195
G1 X17.808 Y82.337 E40.86563
G1 X18.265 Y81.707 E40.89411
G1 X18.44 Y81.474 E40.90477
