;FLAVOR:Marlin
;TIME:2568
;Filament used: 3.00284m
;Layer height: 0.2
;MINX:71.93
;MINY:72.168
;MINZ:0.24
;MAXX:148.066
;MAXY:147.838
;MAXZ:6.29
;Generated with Cura_SteamEngine 4.2.0
M140 S40
M105
M190 S40
M104 S210
M105
M109 S210
M82 ;absolute extrusion mode
; Ender 3 Custom Start G-code
G28 ; Home all axes
G92 E0 ; Reset Extruder
G1 Z2.0 F3000 ; Move Z Axis up little to prevent scratching of Heat Bed
G1 X0.1 Y20 Z0.3 F5000.0 ; Move to start position
G1 X0.1 Y200.0 Z0.3 F1500.0 E15 ; Draw the first line
G1 X0.4 Y200.0 Z0.3 F5000.0 ; Move to side a little
G1 X0.4 Y20 Z0.3 F1500.0 E30 ; Draw the second line
G92 E0 ; Reset Extruder
G1 Z2.0 F3000 ; Move Z Axis up little to prevent scratching of Heat Bed
G90 ; absolute xyz﻿
M141 S28
G92 E0
G92 E0
G1 F1500 E-5
;LAYER_COUNT:25
;LAYER:-6
M107
G0 F12000 X82.88 Y83.076 Z0.24
;TYPE:SUPPORT-INTERFACE
G1 F1500 E0
G1 F1800 X83.543 Y82.473 E0.07154
G1 X83.682 Y82.355 E0.08609
G1 X84.395 Y81.795 E0.15846
G1 X84.539 Y81.691 E0.17264
G1 X85.271 Y81.199 E0.24305
G1 X85.417 Y81.108 E0.25678
G1 X86.206 Y80.657 E0.32932
G1 X86.339 Y80.587 E0.34132
G1 X87.166 Y80.192 E0.41448
G1 X87.305 Y80.132 E0.42656
G1 X88.128 Y79.81 E0.49711
G1 X88.286 Y79.755 E0.51046
G1 X88.939 Y79.552 E0.56505
G1 X89.564 Y79.314 E0.61843
G1 X90.167 Y78.992 E0.673
G1 X90.727 Y78.594 E0.72784
G1 X91.362 Y77.988 E0.79791
G1 X91.725 Y77.577 E0.84168
G1 X91.848 Y77.447 E0.85597
G1 X92.501 Y76.809 E0.92884
G1 X92.608 Y76.712 E0.94037
G1 X93.421 Y76.032 E1.02498
G1 X94.144 Y75.507 E1.0963
G1 X94.307 Y75.397 E1.112
G1 X95.064 Y74.928 E1.18308
G1 X95.203 Y74.849 E1.19584
G1 X96.001 Y74.431 E1.26775
G1 X96.153 Y74.358 E1.28121
G1 X96.96 Y74.008 E1.35143
G1 X97.143 Y73.937 E1.3671
G1 X98.248 Y73.559 E1.46032
G1 X100.248 Y72.963 E1.62691
G1 X101.379 Y72.675 E1.72007
G1 X102.328 Y72.505 E1.79703
G1 X102.492 Y72.482 E1.81025
G1 X103.392 Y72.387 E1.88249
G1 X103.553 Y72.377 E1.89537
G1 X104.446 Y72.348 E1.96669
G1 X104.607 Y72.349 E1.97954
G1 X105.518 Y72.387 E2.05232
G1 X105.69 Y72.401 E2.0661
G1 X106.549 Y72.5 E2.13512
G1 X106.77 Y72.533 E2.15296
G1 X107.608 Y72.692 E2.22104
G1 X107.765 Y72.728 E2.2339
G1 X108.624 Y72.956 E2.30484
G1 X109.281 Y73.086 E2.35831
G1 X109.962 Y73.135 E2.41281
G1 X110.649 Y73.096 E2.46773
G1 X111.557 Y72.905 E2.5418
G1 X111.724 Y72.854 E2.55574
G1 X111.897 Y72.809 E2.57001
G1 X112.745 Y72.616 E2.63943
G1 X112.941 Y72.579 E2.65535
G1 X113.811 Y72.449 E2.72557
G1 X113.989 Y72.429 E2.73987
G1 X114.86 Y72.362 E2.8096
G1 X115.057 Y72.354 E2.82534
G1 X115.943 Y72.35 E2.89606
G1 X116.104 Y72.356 E2.90893
G1 X116.992 Y72.417 E2.97998
G1 X117.184 Y72.438 E2.99539
G1 X118.209 Y72.59 E3.07811
G1 X119.265 Y72.826 E3.16448
G1 X119.772 Y72.968 E3.20651
G1 X121.864 Y73.598 E3.38091
G1 X122.771 Y73.907 E3.4574
G1 X122.916 Y73.962 E3.46978
G1 X123.751 Y74.318 E3.54224
G1 X123.906 Y74.391 E3.55591
G1 X124.701 Y74.799 E3.62724
G1 X124.843 Y74.878 E3.64021
G1 X125.607 Y75.343 E3.71161
G1 X125.755 Y75.441 E3.72578
G1 X126.489 Y75.966 E3.79781
G1 X126.613 Y76.063 E3.81038
G1 X127.427 Y76.746 E3.8952
G1 X128.193 Y77.492 E3.98055
G1 X128.667 Y78.02 E4.03719
G1 X129.146 Y78.489 E4.0907
G1 X129.691 Y78.902 E4.14529
G1 X130.288 Y79.245 E4.20025
G1 X131.187 Y79.591 E4.27714
G1 X131.316 Y79.628 E4.28785
G1 X131.492 Y79.684 E4.3026
G1 X132.302 Y79.978 E4.37138
G1 X132.507 Y80.061 E4.38903
G1 X133.302 Y80.415 E4.4585
G1 X133.444 Y80.485 E4.47114
G1 X134.259 Y80.922 E4.54496
G1 X134.373 Y80.989 E4.55551
G1 X135.273 Y81.566 E4.64085
G1 X136.141 Y82.218 E4.72751
G1 X136.811 Y82.796 E4.79814
G1 X136.942 Y82.92 E4.81254
G1 X137.964 Y83.974 E4.92973
G1 X139.333 Y85.539 E5.09571
G1 X139.957 Y86.303 E5.17445
G1 X140.014 Y86.381 E5.18216
G1 X140.554 Y87.143 E5.25672
G1 X140.644 Y87.279 E5.26973
G1 X141.177 Y88.173 E5.35282
G1 X141.599 Y89.005 E5.42729
G1 X141.667 Y89.151 E5.44014
G1 X142.011 Y89.972 E5.5112
G1 X142.075 Y90.14 E5.52555
G1 X142.357 Y90.981 E5.59635
G1 X142.41 Y91.163 E5.61149
G1 X142.63 Y92.026 E5.68258
G1 X142.663 Y92.177 E5.69492
G1 X142.917 Y93.591 E5.80959
G1 X142.934 Y93.587 E5.81099
G1 X142.965 Y93.735 E5.82306
G1 X143.191 Y94.38 E5.87761
G1 X143.498 Y94.995 E5.93248
G1 X144.042 Y95.765 E6.00774
G1 X144.367 Y96.146 E6.04771
G1 X144.485 Y96.296 E6.06295
G1 X145.016 Y97.02 E6.13462
G1 X145.114 Y97.164 E6.14852
G1 X145.583 Y97.913 E6.21907
G1 X145.662 Y98.049 E6.23162
G1 X146.153 Y98.987 E6.31613
G1 X146.519 Y99.822 E6.38891
G1 X146.588 Y99.996 E6.40385
G1 X146.925 Y100.964 E6.48567
G1 X147.169 Y101.855 E6.55941
G1 X147.21 Y102.031 E6.57384
G1 X147.437 Y103.239 E6.67195
G1 X147.736 Y105.311 E6.83906
G1 X147.835 Y106.19 E6.90967
G1 X147.883 Y107.145 E6.986
G1 X147.886 Y107.321 E7.00005
G1 X147.865 Y108.233 E7.07287
G1 X147.856 Y108.382 E7.08478
G1 X147.77 Y109.283 E7.15703
G1 X147.748 Y109.447 E7.17024
G1 X147.564 Y110.493 E7.25502
G1 X147.352 Y111.352 E7.32565
G1 X147.297 Y111.544 E7.34159
G1 X147.024 Y112.382 E7.41194
G1 X146.964 Y112.547 E7.42596
G1 X146.601 Y113.428 E7.50202
G1 X146.363 Y114.055 E7.55555
G1 X146.203 Y114.719 E7.61007
G1 X146.128 Y115.397 E7.66452
G1 X146.139 Y116.075 E7.71865
G1 X146.216 Y116.698 E7.76876
G1 X146.296 Y117.594 E7.84057
G1 X146.302 Y117.736 E7.85191
G1 X146.315 Y118.647 E7.92464
G1 X146.311 Y118.815 E7.93805
G1 X146.26 Y119.688 E8.00786
G1 X146.242 Y119.878 E8.02309
G1 X146.122 Y120.785 E8.09613
G1 X146.096 Y120.934 E8.1082
G1 X145.916 Y121.799 E8.17873
G1 X145.869 Y121.994 E8.19474
G1 X145.583 Y122.977 E8.27646
G1 X145.22 Y123.963 E8.36033
G1 X144.977 Y124.523 E8.40906
G1 X144.081 Y126.467 E8.57993
G1 X143.521 Y127.555 E8.6776
G1 X143.028 Y128.364 E8.75323
G1 X142.928 Y128.515 E8.76769
G1 X142.417 Y129.229 E8.83777
G1 X142.304 Y129.377 E8.85264
G1 X141.73 Y130.066 E8.92422
G1 X141.624 Y130.183 E8.93682
G1 X140.992 Y130.839 E9.00954
G1 X140.875 Y130.952 E9.02252
G1 X140.214 Y131.546 E9.09346
G1 X140.094 Y131.646 E9.10593
G1 X139.382 Y132.196 E9.17775
G1 X139.225 Y132.308 E9.19314
G1 X138.708 Y132.651 E9.24267
G1 X138.175 Y133.056 E9.2961
G1 X137.687 Y133.534 E9.35063
G1 X137.262 Y134.071 E9.4053
G1 X136.864 Y134.75 E9.46812
G1 X136.428 Y135.629 E9.54644
G1 X136.332 Y135.808 E9.56266
G1 X135.885 Y136.564 E9.63276
G1 X135.802 Y136.694 E9.64508
G1 X135.278 Y137.45 E9.7185
G1 X135.175 Y137.587 E9.73218
G1 X134.628 Y138.265 E9.80172
G1 X134.499 Y138.412 E9.81733
G1 X133.902 Y139.051 E9.88714
G1 X133.763 Y139.189 E9.90277
G1 X133.127 Y139.777 E9.97192
G1 X132.986 Y139.898 E9.98675
G1 X132.286 Y140.455 E10.05816
G1 X132.154 Y140.553 E10.07128
G1 X131.432 Y141.05 E10.14125
G1 X129.674 Y142.183 E10.3082
G1 X129.084 Y142.543 E10.36337
G1 X128.235 Y143 E10.44033
G1 X128.075 Y143.079 E10.45458
G1 X127.283 Y143.431 E10.52376
G1 X127.078 Y143.514 E10.54142
G1 X126.253 Y143.813 E10.61146
G1 X126.116 Y143.857 E10.62295
G1 X125.255 Y144.099 E10.69434
G1 X125.057 Y144.147 E10.7106
G1 X124.192 Y144.323 E10.78107
G1 X124.032 Y144.35 E10.79402
G1 X122.977 Y144.48 E10.87887
G1 X122.087 Y144.528 E10.95002
G1 X121.411 Y144.542 E11.00399
G1 X121.411 Y144.553 E11.00487
G1 X121.237 Y144.56 E11.01877
G1 X120.564 Y144.676 E11.07328
G1 X119.912 Y144.875 E11.1277
G1 X119.293 Y145.153 E11.18186
G1 X118.931 Y145.363 E11.21527
G1 X118.507 Y145.631 E11.25531
G1 X118.357 Y145.717 E11.26911
G1 X117.568 Y146.139 E11.34054
G1 X117.419 Y146.211 E11.35375
G1 X116.599 Y146.576 E11.42539
G1 X116.436 Y146.641 E11.4394
G1 X115.612 Y146.937 E11.50929
G1 X115.424 Y146.997 E11.52504
G1 X114.574 Y147.234 E11.59548
G1 X114.412 Y147.273 E11.60878
G1 X113.528 Y147.45 E11.68075
G1 X113.362 Y147.478 E11.69419
G1 X112.474 Y147.589 E11.76562
G1 X112.306 Y147.603 E11.77908
G1 X111.014 Y147.658 E11.88231
G1 X108.922 Y147.657 E12.0493
G1 X107.975 Y147.625 E12.12494
G1 X106.996 Y147.526 E12.20348
G1 X106.833 Y147.504 E12.21661
G1 X105.951 Y147.35 E12.28808
G1 X105.784 Y147.314 E12.30172
G1 X104.898 Y147.091 E12.37465
G1 X104.768 Y147.053 E12.38546
G1 X103.894 Y146.764 E12.45894
G1 X103.754 Y146.712 E12.47086
G1 X102.765 Y146.297 E12.55648
G1 X101.956 Y145.891 E12.62873
G1 X101.794 Y145.802 E12.64349
G1 X100.618 Y145.098 E12.75289
G1 X100.61 Y145.11 E12.75405
G1 X100.582 Y145.094 E12.75662
G1 X99.953 Y144.83 E12.81107
G1 X99.289 Y144.644 E12.86612
G1 X98.307 Y144.531 E12.94502
G1 X97.514 Y144.515 E13.00834
G1 X97.349 Y144.506 E13.02153
G1 X96.446 Y144.421 E13.09393
G1 X96.287 Y144.399 E13.10674
G1 X95.435 Y144.256 E13.1757
G1 X95.217 Y144.21 E13.19349
G1 X94.382 Y144.005 E13.26212
G1 X94.207 Y143.956 E13.27662
G1 X93.353 Y143.679 E13.34829
G1 X93.196 Y143.622 E13.36162
G1 X92.347 Y143.277 E13.43478
G1 X92.208 Y143.214 E13.44696
G1 X91.41 Y142.819 E13.51803
G1 X91.252 Y142.734 E13.53236
G1 X90.34 Y142.193 E13.617
G1 X88.56 Y141.044 E13.78612
G1 X87.487 Y140.28 E13.89126
G1 X87.399 Y140.209 E13.90029
G1 X86.704 Y139.622 E13.97291
G1 X86.568 Y139.498 E13.9876
G1 X85.921 Y138.866 E14.0598
G1 X85.812 Y138.751 E14.07244
G1 X85.205 Y138.063 E14.14568
G1 X85.117 Y137.954 E14.15686
G1 X84.559 Y137.222 E14.23034
G1 X84.474 Y137.101 E14.24214
G1 X83.981 Y136.343 E14.31432
G1 X83.894 Y136.198 E14.32782
G1 X83.457 Y135.407 E14.39995
G1 X83.388 Y135.269 E14.41227
G1 X83.219 Y134.9 E14.44467
G1 X82.901 Y134.31 E14.49817
G1 X82.505 Y133.755 E14.55259
G1 X82.039 Y133.251 E14.60739
G1 X81.369 Y132.71 E14.67613
G1 X80.59 Y132.18 E14.75134
G1 X80.452 Y132.077 E14.76508
G1 X79.762 Y131.528 E14.83547
G1 X79.615 Y131.402 E14.85092
G1 X78.976 Y130.811 E14.9204
G1 X78.848 Y130.685 E14.93474
G1 X78.223 Y130.018 E15.0077
G1 X78.122 Y129.902 E15.01998
G1 X77.568 Y129.215 E15.09043
G1 X77.465 Y129.078 E15.10411
G1 X76.941 Y128.322 E15.17754
G1 X76.858 Y128.192 E15.18985
G1 X76.399 Y127.416 E15.26182
G1 X76.315 Y127.261 E15.27589
G1 X75.908 Y126.446 E15.34861
G1 X75.037 Y124.555 E15.5148
G1 X74.648 Y123.623 E15.59542
G1 X74.339 Y122.726 E15.67115
G1 X74.298 Y122.587 E15.68272
G1 X74.027 Y121.548 E15.76843
G1 X73.86 Y120.654 E15.84103
G1 X73.834 Y120.484 E15.85475
G1 X73.734 Y119.598 E15.92593
G1 X73.722 Y119.441 E15.9385
G1 X73.686 Y118.532 E16.01111
G1 X73.685 Y118.371 E16.02397
G1 X73.715 Y117.461 E16.09665
G1 X73.725 Y117.322 E16.10777
G1 X73.879 Y115.872 E16.22417
G1 X73.866 Y115.872 E16.2252
G1 X73.876 Y115.744 E16.23545
G1 X73.845 Y115.063 E16.28987
G1 X73.728 Y114.386 E16.34471
G1 X73.453 Y113.551 E16.41489
G1 X73.104 Y112.729 E16.48617
G1 X73.04 Y112.563 E16.50037
G1 X72.754 Y111.721 E16.57136
G1 X72.702 Y111.549 E16.5857
G1 X72.474 Y110.674 E16.65788
G1 X72.44 Y110.522 E16.67031
G1 X72.279 Y109.647 E16.74133
G1 X72.254 Y109.473 E16.75536
G1 X72.157 Y108.581 E16.82699
G1 X72.144 Y108.41 E16.84067
G1 X72.111 Y107.363 E16.92429
G1 X72.144 Y106.453 E16.99698
G1 X72.156 Y106.289 E17.01011
G1 X72.263 Y105.311 E17.08864
G1 X72.56 Y103.253 E17.25462
G1 X72.768 Y102.128 E17.34594
G1 X73.003 Y101.209 E17.42166
G1 X73.044 Y101.074 E17.43293
G1 X73.386 Y100.067 E17.51782
G1 X73.747 Y99.207 E17.59227
G1 X73.805 Y99.082 E17.60327
G1 X74.211 Y98.282 E17.67488
G1 X74.293 Y98.134 E17.68839
G1 X74.761 Y97.358 E17.76073
G1 X74.854 Y97.215 E17.77434
G1 X75.374 Y96.479 E17.84628
G1 X75.469 Y96.355 E17.85875
G1 X76.02 Y95.685 E17.92799
G1 X76.412 Y95.141 E17.98152
G1 X76.738 Y94.542 E18.03595
G1 X76.988 Y93.903 E18.09073
G1 X77.177 Y93.101 E18.1565
G1 X77.264 Y92.536 E18.20213
G1 X77.297 Y92.364 E18.21611
G1 X77.498 Y91.489 E18.28778
G1 X77.54 Y91.331 E18.30083
G1 X77.803 Y90.48 E18.37193
G1 X77.856 Y90.327 E18.38485
G1 X78.19 Y89.47 E18.45827
G1 X78.256 Y89.317 E18.47157
G1 X78.642 Y88.507 E18.5432
G1 X78.716 Y88.366 E18.55591
G1 X79.159 Y87.59 E18.62724
G1 X79.247 Y87.446 E18.64071
G1 X79.738 Y86.715 E18.711
G1 X79.857 Y86.552 E18.72711
G1 X80.637 Y85.573 E18.82703
G1 X82.105 Y83.885 E19.0056
G1 X82.88 Y83.076 E19.09503
G0 F12000 X83.2 Y82.784
G1 F1800 X83.2 Y134.864 E23.25228
G1 F1500 E18.25228
G1 F300 Z0.44
G0 F12000 X81.6 Y132.896 Z0.44
G1 F300 Z0.24
G1 F1500 E23.25228
G1 F1800 X81.6 Y84.465 E27.11825
G1 F1500 E22.11825
G1 F300 Z0.44
G0 F12000 X80 Y86.372 Z0.44
G1 F300 Z0.24
G1 F1500 E27.11825
G1 F1800 X80 Y131.717 E30.73788
G1 F1500 E25.73788
G1 F300 Z0.44
G0 F12000 X78.4 Y130.206 Z0.44
G1 F300 Z0.24
G1 F1500 E30.73788
G1 F1800 X78.4 Y89.014 E34.02601
G1 F1500 E29.02601
G1 F300 Z0.44
G0 F12000 X76.8 Y94.383 Z0.44
G1 F300 Z0.24
G1 F1500 E34.02601
G1 F1800 X76.8 Y128.093 E36.71689
G1 F1500 E31.71689
G1 F300 Z0.44
G0 F12000 X75.2 Y124.908 Z0.44
G1 F300 Z0.24
G1 F1500 E36.71689
G1 F1800 X75.2 Y96.725 E38.96657
G1 F1500 E33.96657
G1 F300 Z0.44
G0 F12000 X73.6 Y99.557 Z0.44
G1 F300 Z0.24
G1 F1500 E38.96657
G1 F1800 X73.6 Y113.997 E40.11924
G1 F1500 E35.11924
G1 F300 Z0.44
G0 F12000 X84.8 Y137.538 Z0.44
G1 F300 Z0.24
G1 F1500 E40.11924
G1 F1800 X84.8 Y81.515 E44.59124
G1 F1500 E39.59124
G1 F300 Z0.44
G0 F12000 X86.4 Y80.557 Z0.44
G1 F300 Z0.24
G1 F1500 E44.59124
G1 F1800 X86.4 Y139.333 E49.28299
G1 F1500 E44.28299
G1 F300 Z0.44
G0 F12000 X88 Y140.645 Z0.44
G1 F300 Z0.24
G1 F1500 E49.28299
G1 F1800 X88 Y79.86 E54.13511
G1 F1500 E49.13511
G1 F300 Z0.44
G0 F12000 X89.6 Y79.294 Z0.44
G1 F300 Z0.24
G1 F1500 E54.13511
G1 F1800 X89.6 Y141.715 E59.11783
G1 F1500 E54.11783
G1 F300 Z0.44
G0 F12000 X91.2 Y142.703 Z0.44
G1 F300 Z0.24
G1 F1500 E59.11783
G1 F1800 X91.2 Y78.142 E64.27136
G1 F1500 E59.27136
G1 F300 Z0.44
G0 F12000 X92.8 Y76.551 Z0.44
G1 F300 Z0.24
G1 F1500 E64.27136
G1 F1800 X92.8 Y143.461 E69.61241
G1 F1500 E64.61241
G1 F300 Z0.44
G0 F12000 X94.4 Y144.009 Z0.44
G1 F300 Z0.24
G1 F1500 E69.61241
G1 F1800 X94.4 Y75.339 E75.09395
G1 F1500 E70.09395
G1 F300 Z0.44
G0 F12000 X96 Y74.431 Z0.44
G1 F300 Z0.24
G1 F1500 E75.09395
G1 F1800 X96 Y144.35 E80.67518
G1 F1500 E75.67518
G1 F300 Z0.44
G0 F12000 X97.6 Y144.516 Z0.44
G1 F300 Z0.24
G1 F1500 E80.67518
G1 F1800 X97.6 Y73.78 E86.32164
G1 F1500 E81.32164
G1 F300 Z0.44
G0 F12000 X99.2 Y73.275 Z0.44
G1 F300 Z0.24
G1 F1500 E86.32164
G1 F1800 X99.2 Y144.633 E92.01774
G1 F1500 E87.01774
G1 F300 Z0.44
G0 F12000 X100.8 Y145.206 Z0.44
G1 F300 Z0.24
G1 F1500 E92.01774
G1 F1800 X100.8 Y72.822 E97.79574
G1 F1500 E92.79574
G1 F300 Z0.44
G0 F12000 X102.4 Y72.494 Z0.44
G1 F300 Z0.24
G1 F1500 E97.79574
G1 F1800 X102.4 Y146.113 E103.67233
G1 F1500 E98.67233
G1 F300 Z0.44
G0 F12000 X104 Y146.799 Z0.44
G1 F300 Z0.24
G1 F1500 E103.67233
G1 F1800 X104 Y72.362 E109.61421
G1 F1500 E104.61421
G1 F300 Z0.44
G0 F12000 X105.6 Y72.394 Z0.44
G1 F300 Z0.24
G1 F1500 E109.61421
G1 F1800 X105.6 Y147.267 E115.5909
G1 F1500 E110.5909
G1 F300 Z0.44
G0 F12000 X107.2 Y147.546 Z0.44
G1 F300 Z0.24
G1 F1500 E115.5909
G1 F1800 X107.2 Y72.615 E121.57222
G1 F1500 E116.57222
G1 F300 Z0.44
G0 F12000 X108.8 Y72.991 Z0.44
G1 F300 Z0.24
G1 F1500 E121.57222
G1 F1800 X108.8 Y147.652 E127.53198
G1 F1500 E122.53198
G1 F300 Z0.44
G0 F12000 X110.4 Y147.657 Z0.44
G1 F300 Z0.24
G1 F1500 E127.53198
G1 F1800 X110.4 Y73.11 E133.48265
G1 F1500 E128.48265
G1 F300 Z0.44
G0 F12000 X112 Y72.785 Z0.44
G1 F300 Z0.24
G1 F1500 E133.48265
G1 F1800 X112 Y147.617 E139.45606
G1 F1500 E134.45606
G1 F300 Z0.44
G0 F12000 X113.6 Y147.436 Z0.44
G1 F300 Z0.24
G1 F1500 E139.45606
G1 F1800 X113.6 Y72.48 E145.43937
G1 F1500 E140.43937
G1 F300 Z0.44
G0 F12000 X115.2 Y72.353 Z0.44
G1 F300 Z0.24
G1 F1500 E145.43937
G1 F1800 X115.2 Y147.06 E151.40281
G1 F1500 E146.40281
G1 F300 Z0.44
G0 F12000 X116.8 Y146.487 Z0.44
G1 F300 Z0.24
G1 F1500 E151.40281
G1 F1800 X116.8 Y72.404 E157.31643
G1 F1500 E152.31643
G1 F300 Z0.44
G0 F12000 X118.4 Y72.633 Z0.44
G1 F300 Z0.24
G1 F1500 E157.31643
G1 F1800 X118.4 Y145.693 E163.1484
G1 F1500 E158.1484
G1 F300 Z0.44
G0 F12000 X120 Y144.849 Z0.44
G1 F300 Z0.24
G1 F1500 E163.1484
G1 F1800 X120 Y73.037 E168.88074
G1 F1500 E163.88074
G1 F300 Z0.44
G0 F12000 X121.6 Y73.519 Z0.44
G1 F300 Z0.24
G1 F1500 E168.88074
G1 F1800 X121.6 Y144.539 E174.54987
G1 F1500 E169.54987
G1 F300 Z0.44
G0 F12000 X123.2 Y144.453 Z0.44
G1 F300 Z0.24
G1 F1500 E174.54987
G1 F1800 X123.2 Y74.084 E180.16702
G1 F1500 E175.16702
G1 F300 Z0.44
G0 F12000 X124.8 Y74.855 Z0.44
G1 F300 Z0.24
G1 F1500 E180.16702
G1 F1800 X124.8 Y144.2 E185.70244
G1 F1500 E180.70244
G1 F300 Z0.44
G0 F12000 X126.4 Y143.76 Z0.44
