;FLAVOR:Marlin
;TIME:2812
;Filament used: 3.79444m
;Layer height: 0.2
;MINX:52.34
;MINY:66.84
;MINZ:0.2
;MAXX:167.66
;MAXY:153.16
;MAXZ:2.2
;Generated with Cura_SteamEngine 4.2.0
M140 S50
M105
M190 S50
M104 S210
M105
M109 S210
M82 ;absolute extrusion mode
; Ender 3 Custom Start G-code
G28 ; Home all axes
G92 E0 ; Reset Extruder
G1 Z2.0 F3000 ; Move Z Axis up little to prevent scratching of Heat Bed
G1 X0.1 Y20 Z0.3 F5000.0 ; Move to start position
G1 X0.1 Y200.0 Z0.3 F1500.0 E15 ; Draw the first line
G1 X0.4 Y200.0 Z0.3 F5000.0 ; Move to side a little
G1 X0.4 Y20 Z0.3 F1500.0 E30 ; Draw the second line
G92 E0 ; Reset Extruder
G1 Z2.0 F3000 ; Move Z Axis up little to prevent scratching of Heat Bed
G90 ; absolute xyz﻿
M141 S28
G92 E0
G92 E0
G1 F1500 E-5
;LAYER_COUNT:10
;LAYER:0
M107
G0 F6000 X56.216 Y69.294 Z0.2
;TYPE:SKIRT
G1 F1500 E0
G1 F1200 X56.952 Y68.737 E0.03377
G1 X57.734 Y68.246 E0.06755
G1 X58.556 Y67.824 E0.10136
G1 X59.41 Y67.475 E0.13511
G1 X60.292 Y67.201 E0.1689
G1 X61.194 Y67.005 E0.20267
G1 X62.11 Y66.887 E0.23646
G1 X62.71 Y66.853 E0.25845
G1 X63.031 Y66.844 E0.2702
G1 X63.33 Y66.84 E0.28114
G1 X156.293 Y66.84 E3.6823
G1 X156.446 Y66.841 E3.68789
G1 X157.144 Y66.851 E3.71343
G1 X158.065 Y66.904 E3.74718
G1 X158.979 Y67.037 E3.78098
G1 X159.878 Y67.248 E3.81476
G1 X160.755 Y67.537 E3.84854
G1 X161.604 Y67.9 E3.88233
G1 X162.418 Y68.335 E3.91609
G1 X163.192 Y68.839 E3.94988
G1 X163.919 Y69.408 E3.98366
G1 X164.594 Y70.038 E4.01744
G1 X165.212 Y70.724 E4.05122
G1 X165.768 Y71.46 E4.08497
G1 X166.259 Y72.243 E4.11878
G1 X166.68 Y73.064 E4.15254
G1 X167.028 Y73.919 E4.18631
G1 X167.301 Y74.801 E4.22009
G1 X167.497 Y75.703 E4.25386
G1 X167.614 Y76.619 E4.28765
G1 X167.647 Y77.21 E4.3093
G1 X167.656 Y77.53 E4.32102
G1 X167.66 Y77.83 E4.33199
G1 X167.66 Y141.764 E6.67109
G1 X167.659 Y141.896 E6.67592
G1 X167.65 Y142.623 E6.70252
G1 X167.599 Y143.545 E6.73631
G1 X167.468 Y144.459 E6.77009
G1 X167.258 Y145.358 E6.80386
G1 X166.972 Y146.236 E6.83765
G1 X166.61 Y147.085 E6.87141
G1 X166.177 Y147.9 E6.90518
G1 X165.674 Y148.675 E6.93898
G1 X165.107 Y149.403 E6.97274
G1 X164.478 Y150.079 E7.00652
G1 X163.793 Y150.699 E7.04033
G1 X163.058 Y151.256 E7.07407
G1 X162.276 Y151.748 E7.10787
G1 X161.456 Y152.171 E7.14163
G1 X160.601 Y152.521 E7.17543
G1 X159.72 Y152.796 E7.20919
G1 X158.818 Y152.993 E7.24297
G1 X157.902 Y153.112 E7.27677
G1 X157.29 Y153.147 E7.29919
G1 X156.969 Y153.156 E7.31094
G1 X156.67 Y153.16 E7.32188
G1 X63.707 Y153.16 E10.72304
G1 X63.57 Y153.159 E10.72805
G1 X62.872 Y153.15 E10.75359
G1 X61.95 Y153.098 E10.78738
G1 X61.036 Y152.967 E10.82116
G1 X60.137 Y152.757 E10.85494
G1 X59.259 Y152.47 E10.88873
G1 X58.41 Y152.108 E10.9225
G1 X57.595 Y151.674 E10.95628
G1 X56.821 Y151.171 E10.99005
G1 X56.093 Y150.603 E11.02384
G1 X55.417 Y149.974 E11.05762
G1 X54.798 Y149.289 E11.0914
G1 X54.241 Y148.553 E11.12517
G1 X53.749 Y147.772 E11.15894
G1 X53.327 Y146.951 E11.19271
G1 X52.977 Y146.096 E11.22651
G1 X52.703 Y145.215 E11.26027
G1 X52.506 Y144.313 E11.29404
G1 X52.388 Y143.397 E11.32783
G1 X52.353 Y142.779 E11.35048
G1 X52.344 Y142.446 E11.36267
G1 X52.34 Y142.158 E11.37321
G1 X52.34 Y78.174 E13.71413
G1 X52.341 Y78.03 E13.7194
G1 X52.35 Y77.365 E13.74373
G1 X52.402 Y76.443 E13.77752
G1 X52.534 Y75.529 E13.81131
G1 X52.745 Y74.63 E13.84509
G1 X53.033 Y73.753 E13.87886
G1 X53.395 Y72.904 E13.91263
G1 X53.83 Y72.089 E13.94643
G1 X54.333 Y71.315 E13.9802
G1 X54.901 Y70.588 E14.01396
G1 X55.531 Y69.912 E14.04776
G1 X56.216 Y69.294 E14.08152
G0 F6000 X56.643 Y69.514
G1 F1200 X57.374 Y68.983 E14.11457
G1 X58.15 Y68.518 E14.14767
G1 X58.963 Y68.124 E14.18072
G1 X59.809 Y67.803 E14.21383
G1 X60.679 Y67.558 E14.2469
G1 X61.567 Y67.391 E14.27996
G1 X62.723 Y67.293 E14.3224
G1 X63.044 Y67.284 E14.33415
G1 X63.33 Y67.28 E14.34461
G1 X156.293 Y67.28 E17.74577
G1 X156.439 Y67.281 E17.75111
G1 X157.137 Y67.291 E17.77665
G1 X158.04 Y67.344 E17.80975
G1 X158.934 Y67.476 E17.84281
G1 X159.813 Y67.687 E17.87588
G1 X160.67 Y67.975 E17.90896
G1 X161.498 Y68.338 E17.94204
G1 X162.291 Y68.772 E17.97511
G1 X163.043 Y69.274 E18.00819
G1 X163.747 Y69.841 E18.04126
G1 X164.398 Y70.468 E18.07433
G1 X164.991 Y71.15 E18.1074
G1 X165.522 Y71.882 E18.14048
G1 X165.986 Y72.658 E18.17356
G1 X166.379 Y73.472 E18.20663
G1 X166.699 Y74.317 E18.23969
G1 X166.944 Y75.188 E18.27279
G1 X167.11 Y76.076 E18.30584
G1 X167.207 Y77.223 E18.34796
G1 X167.216 Y77.543 E18.35967
G1 X167.22 Y77.83 E18.37017
G1 X167.22 Y141.764 E20.70927
G1 X167.219 Y141.891 E20.71392
G1 X167.21 Y142.618 E20.74052
G1 X167.159 Y143.52 E20.77357
G1 X167.028 Y144.415 E20.80666
G1 X166.819 Y145.294 E20.83972
G1 X166.533 Y146.151 E20.87277
G1 X166.172 Y146.98 E20.90585
G1 X165.74 Y147.774 E20.93892
G1 X165.238 Y148.527 E20.97203
G1 X164.673 Y149.232 E21.00509
G1 X164.047 Y149.884 E21.03816
G1 X163.366 Y150.479 E21.07124
G1 X162.635 Y151.011 E21.10432
G1 X161.861 Y151.476 E21.13736
G1 X161.047 Y151.871 E21.17046
G1 X160.203 Y152.193 E21.20351
G1 X159.333 Y152.439 E21.23659
G1 X158.445 Y152.607 E21.26965
G1 X157.277 Y152.707 E21.31254
G1 X156.956 Y152.716 E21.32429
G1 X156.67 Y152.72 E21.33475
G1 X63.707 Y152.72 E24.73591
G1 X63.575 Y152.719 E24.74074
G1 X62.877 Y152.71 E24.76628
G1 X61.975 Y152.659 E24.79933
G1 X61.08 Y152.527 E24.83243
G1 X60.201 Y152.318 E24.86549
G1 X59.344 Y152.031 E24.89855
G1 X58.515 Y151.67 E24.93163
G1 X57.721 Y151.237 E24.96472
G1 X56.969 Y150.735 E24.9978
G1 X56.264 Y150.169 E25.03088
G1 X55.612 Y149.543 E25.06395
G1 X55.018 Y148.862 E25.09701
G1 X54.486 Y148.131 E25.13009
G1 X54.021 Y147.356 E25.16315
G1 X53.626 Y146.543 E25.19622
G1 X53.305 Y145.698 E25.22929
G1 X53.06 Y144.828 E25.26236
G1 X52.892 Y143.939 E25.29546
G1 X52.793 Y142.767 E25.33849
G1 X52.784 Y142.434 E25.35068
G1 X52.78 Y142.158 E25.36078
G1 X52.78 Y78.174 E27.70171
G1 X52.781 Y78.036 E27.70676
G1 X52.79 Y77.371 E27.73109
G1 X52.842 Y76.468 E27.76418
G1 X52.974 Y75.574 E27.79724
G1 X53.184 Y74.695 E27.83031
G1 X53.471 Y73.837 E27.86341
G1 X53.833 Y73.009 E27.89647
G1 X54.267 Y72.216 E27.92954
G1 X54.768 Y71.464 E27.9626
G1 X55.335 Y70.759 E27.9957
G1 X55.961 Y70.108 E28.02875
G1 X56.643 Y69.514 E28.06184
G1 F1500 E23.06184
G1 F300 Z0.4
;MESH:susan platform_base_1.stl
G0 F6000 X64.1 Y141.4 Z0.4
;TYPE:WALL-INNER
G1 F300 Z0.2
G1 F1500 E28.06184
G1 F1200 X64.1 Y78.6 E30.35945
G1 X155.9 Y78.6 E33.71805
G1 X155.9 Y141.4 E36.01566
G1 X64.1 Y141.4 E39.37427
G0 F6000 X63.66 Y141.84
G1 F1200 X63.66 Y78.16 E41.70408
G1 X156.34 Y78.16 E45.09488
G1 X156.34 Y141.84 E47.42469
G1 X63.66 Y141.84 E50.81549
G0 F6000 X63.22 Y142.28
;TYPE:WALL-OUTER
G1 F1200 X63.22 Y77.72 E53.1775
G1 X156.78 Y77.72 E56.6005
G1 X156.78 Y142.28 E58.9625
G1 X63.22 Y142.28 E62.3855
G1 F1500 E57.3855
G1 F300 Z0.4
G0 F6000 X64.53 Y140.97 Z0.4
;TYPE:SKIN
G1 F300 Z0.2
G1 F1500 E62.3855
G1 F1200 X64.53 Y79.03 E64.65164
G1 X155.47 Y79.03 E67.97879
G1 X155.47 Y140.97 E70.24493
G1 X64.53 Y140.97 E73.57208
G0 F6000 X64.878 Y140.793
G1 F1200 X64.705 Y140.62 E73.58103
G0 F6000 X64.705 Y139.998
G1 F1200 X65.5 Y140.793 E73.62216
G0 F6000 X66.122 Y140.793
G1 F1200 X64.705 Y139.376 E73.69548
G0 F6000 X64.705 Y138.754
G1 F1200 X66.745 Y140.793 E73.801
G0 F6000 X67.367 Y140.793
G1 F1200 X64.705 Y138.131 E73.93874
G0 F6000 X64.705 Y137.509
G1 F1200 X67.989 Y140.793 E74.10865
G0 F6000 X68.611 Y140.793
G1 F1200 X64.705 Y136.887 E74.31075
G0 F6000 X64.705 Y136.265
G1 F1200 X69.234 Y140.793 E74.54506
G0 F6000 X69.856 Y140.793
G1 F1200 X64.705 Y135.642 E74.81158
G0 F6000 X64.705 Y135.02
G1 F1200 X70.478 Y140.793 E75.11028
G0 F6000 X71.101 Y140.793
G1 F1200 X64.705 Y134.398 E75.44118
G0 F6000 X64.705 Y133.776
G1 F1200 X71.723 Y140.793 E75.80427
G0 F6000 X72.345 Y140.793
G1 F1200 X64.705 Y133.153 E76.19957
G0 F6000 X64.705 Y132.531
G1 F1200 X72.967 Y140.793 E76.62705
G0 F6000 X73.59 Y140.793
G1 F1200 X64.705 Y131.909 E77.08674
G0 F6000 X64.705 Y131.287
G1 F1200 X74.212 Y140.793 E77.57861
G0 F6000 X74.834 Y140.793
G1 F1200 X64.705 Y130.664 E78.10269
G0 F6000 X64.705 Y130.042
G1 F1200 X75.456 Y140.793 E78.65896
G0 F6000 X76.079 Y140.793
G1 F1200 X64.705 Y129.42 E79.24743
G0 F6000 X64.705 Y128.798
G1 F1200 X76.701 Y140.793 E79.86808
G0 F6000 X77.323 Y140.793
G1 F1200 X64.705 Y128.175 E80.52095
G0 F6000 X64.705 Y127.553
G1 F1200 X77.945 Y140.793 E81.20599
G0 F6000 X78.568 Y140.793
G1 F1200 X64.705 Y126.931 E81.92325
G0 F6000 X64.705 Y126.309
G1 F1200 X79.19 Y140.793 E82.67269
G0 F6000 X79.812 Y140.793
G1 F1200 X64.705 Y125.686 E83.45433
G0 F6000 X64.705 Y125.064
G1 F1200 X80.434 Y140.793 E84.26816
G0 F6000 X81.057 Y140.793
G1 F1200 X64.705 Y124.442 E85.1142
G0 F6000 X64.705 Y123.82
G1 F1200 X81.679 Y140.793 E85.99242
G0 F6000 X82.301 Y140.793
G1 F1200 X64.705 Y123.197 E86.90284
G0 F6000 X64.705 Y122.575
G1 F1200 X82.923 Y140.793 E87.84545
G0 F6000 X83.546 Y140.793
G1 F1200 X64.705 Y121.953 E88.82027
G0 F6000 X64.705 Y121.331
G1 F1200 X84.168 Y140.793 E89.82728
G0 F6000 X84.79 Y140.793
G1 F1200 X64.705 Y120.708 E90.86649
G0 F6000 X64.705 Y120.086
G1 F1200 X85.412 Y140.793 E91.93788
G0 F6000 X86.035 Y140.793
G1 F1200 X64.705 Y119.464 E93.04148
G0 F6000 X64.705 Y118.842
G1 F1200 X86.657 Y140.793 E94.17727
G0 F6000 X87.279 Y140.793
G1 F1200 X64.705 Y118.219 E95.34526
G0 F6000 X64.705 Y117.597
G1 F1200 X87.901 Y140.793 E96.54543
G0 F6000 X88.524 Y140.793
G1 F1200 X64.705 Y116.975 E97.77782
G0 F6000 X64.705 Y116.353
G1 F1200 X89.146 Y140.793 E99.04239
G0 F6000 X89.768 Y140.793
G1 F1200 X64.705 Y115.73 E100.33916
G0 F6000 X64.705 Y115.108
G1 F1200 X90.39 Y140.793 E101.66812
G0 F6000 X91.013 Y140.793
G1 F1200 X64.705 Y114.486 E103.02929
G0 F6000 X64.705 Y113.863
G1 F1200 X91.635 Y140.793 E104.42266
G0 F6000 X92.257 Y140.793
G1 F1200 X64.705 Y113.241 E105.84822
G0 F6000 X64.705 Y112.619
G1 F1200 X92.879 Y140.793 E107.30596
G0 F6000 X93.502 Y140.793
G1 F1200 X64.705 Y111.997 E108.79591
G0 F6000 X64.705 Y111.374
G1 F1200 X94.124 Y140.793 E110.31806
G0 F6000 X94.746 Y140.793
G1 F1200 X64.705 Y110.752 E111.87241
G0 F6000 X64.705 Y110.13
G1 F1200 X95.368 Y140.793 E113.45893
G0 F6000 X95.991 Y140.793
G1 F1200 X64.705 Y109.508 E115.07766
G0 F6000 X64.705 Y108.885
G1 F1200 X96.613 Y140.793 E116.7286
G0 F6000 X97.235 Y140.793
G1 F1200 X64.705 Y108.263 E118.41172
G0 F6000 X64.705 Y107.641
G1 F1200 X97.857 Y140.793 E120.12703
G0 F6000 X98.48 Y140.793
G1 F1200 X64.705 Y107.019 E121.87454
G0 F6000 X64.705 Y106.396
G1 F1200 X99.102 Y140.793 E123.65426
G0 F6000 X99.724 Y140.793
G1 F1200 X64.705 Y105.774 E125.46617
G0 F6000 X64.705 Y105.152
G1 F1200 X100.346 Y140.793 E127.31026
G0 F6000 X100.969 Y140.793
G1 F1200 X64.705 Y104.53 E129.18655
G0 F6000 X64.705 Y103.907
G1 F1200 X101.591 Y140.793 E131.09506
G0 F6000 X102.213 Y140.793
G1 F1200 X64.705 Y103.285 E133.03574
G0 F6000 X64.705 Y102.663
G1 F1200 X102.835 Y140.793 E135.00861
G0 F6000 X103.458 Y140.793
G1 F1200 X64.705 Y102.041 E137.01369
G0 F6000 X64.705 Y101.418
G1 F1200 X104.08 Y140.793 E139.05098
G0 F6000 X104.702 Y140.793
G1 F1200 X64.705 Y100.796 E141.12045
G0 F6000 X64.705 Y100.174
G1 F1200 X105.324 Y140.793 E143.2221
G0 F6000 X105.947 Y140.793
G1 F1200 X64.705 Y99.552 E145.35596
G0 F6000 X64.705 Y98.929
G1 F1200 X106.569 Y140.793 E147.52203
G0 F6000 X107.191 Y140.793
G1 F1200 X64.705 Y98.307 E149.72029
G0 F6000 X64.705 Y97.685
G1 F1200 X107.813 Y140.793 E151.95072
G0 F6000 X108.436 Y140.793
G1 F1200 X64.705 Y97.063 E154.21336
G0 F6000 X64.705 Y96.44
G1 F1200 X109.058 Y140.793 E156.50822
G0 F6000 X109.68 Y140.793
G1 F1200 X64.705 Y95.818 E158.83525
G0 F6000 X64.705 Y95.196
G1 F1200 X110.303 Y140.793 E161.19449
G0 F6000 X110.925 Y140.793
G1 F1200 X64.705 Y94.574 E163.58592
G0 F6000 X64.705 Y93.951
G1 F1200 X111.547 Y140.793 E166.00955
G0 F6000 X112.169 Y140.793
G1 F1200 X64.705 Y93.329 E168.46537
G0 F6000 X64.705 Y92.707
G1 F1200 X112.792 Y140.793 E170.9534
G0 F6000 X113.414 Y140.793
G1 F1200 X64.705 Y92.085 E173.47361
G0 F6000 X64.705 Y91.462
G1 F1200 X114.036 Y140.793 E176.02602
G0 F6000 X114.658 Y140.793
G1 F1200 X64.705 Y90.84 E178.61062
G0 F6000 X64.705 Y90.218
G1 F1200 X115.281 Y140.793 E181.22743
G0 F6000 X115.903 Y140.793
G1 F1200 X64.705 Y89.596 E183.87642
G0 F6000 X64.705 Y88.973
G1 F1200 X116.525 Y140.793 E186.55762
G0 F6000 X117.147 Y140.793
G1 F1200 X64.705 Y88.351 E189.271
G0 F6000 X64.705 Y87.729
G1 F1200 X117.77 Y140.793 E192.01659
G0 F6000 X118.392 Y140.793
G1 F1200 X64.705 Y87.107 E194.79437
G0 F6000 X64.705 Y86.484
G1 F1200 X119.014 Y140.793 E197.60435
G0 F6000 X119.636 Y140.793
G1 F1200 X64.705 Y85.862 E200.44651
G0 F6000 X64.705 Y85.24
G1 F1200 X120.259 Y140.793 E203.32089
G0 F6000 X120.881 Y140.793
G1 F1200 X64.705 Y84.618 E206.22744
G0 F6000 X64.705 Y83.995
G1 F1200 X121.503 Y140.793 E209.16621
G0 F6000 X122.125 Y140.793
G1 F1200 X64.705 Y83.373 E212.13715
G0 F6000 X64.705 Y82.751
G1 F1200 X122.748 Y140.793 E215.14031
G0 F6000 X123.37 Y140.793
G1 F1200 X64.705 Y82.129 E218.17565
G0 F6000 X64.705 Y81.506
G1 F1200 X123.992 Y140.793 E221.24319
G0 F6000 X124.614 Y140.793
G1 F1200 X64.705 Y80.884 E224.34292
G0 F6000 X64.705 Y80.262
G1 F1200 X125.237 Y140.793 E227.47486
G0 F6000 X125.859 Y140.793
G1 F1200 X64.705 Y79.64 E230.63898
G0 F6000 X64.894 Y79.205
G1 F1200 X126.481 Y140.793 E233.82556
G0 F6000 X127.103 Y140.793
G1 F1200 X65.516 Y79.205 E237.01213
G0 F6000 X66.138 Y79.205
G1 F1200 X127.726 Y140.793 E240.19873
G0 F6000 X128.348 Y140.793
G1 F1200 X66.76 Y79.205 E243.38533
G0 F6000 X67.383 Y79.205
G1 F1200 X128.97 Y140.793 E246.57191
G0 F6000 X129.592 Y140.793
G1 F1200 X68.005 Y79.205 E249.75849
G0 F6000 X68.627 Y79.205
G1 F1200 X130.215 Y140.793 E252.94509
G0 F6000 X130.837 Y140.793
G1 F1200 X69.249 Y79.205 E256.13169
G0 F6000 X69.872 Y79.205
G1 F1200 X131.459 Y140.793 E259.31827
G0 F6000 X132.081 Y140.793
G1 F1200 X70.494 Y79.205 E262.50484
G0 F6000 X71.116 Y79.205
G1 F1200 X132.704 Y140.793 E265.69144
G0 F6000 X133.326 Y140.793
G1 F1200 X71.738 Y79.205 E268.87805
G0 F6000 X72.361 Y79.205
G1 F1200 X133.948 Y140.793 E272.06462
G0 F6000 X134.57 Y140.793
G1 F1200 X72.983 Y79.205 E275.2512
G0 F6000 X73.605 Y79.205
G1 F1200 X135.193 Y140.793 E278.4378
G0 F6000 X135.815 Y140.793
G1 F1200 X74.227 Y79.205 E281.6244
G0 F6000 X74.85 Y79.205
G1 F1200 X136.437 Y140.793 E284.81098
G0 F6000 X137.059 Y140.793
G1 F1200 X75.472 Y79.205 E287.99755
G0 F6000 X76.094 Y79.205
G1 F1200 X137.682 Y140.793 E291.18415
G0 F6000 X138.304 Y140.793
G1 F1200 X76.716 Y79.205 E294.37076
G0 F6000 X77.339 Y79.205
G1 F1200 X138.926 Y140.793 E297.55733
G0 F6000 X139.548 Y140.793
G1 F1200 X77.961 Y79.205 E300.74391
G0 F6000 X78.583 Y79.205
G1 F1200 X140.171 Y140.793 E303.93051
G0 F6000 X140.793 Y140.793
G1 F1200 X79.205 Y79.205 E307.11711
G0 F6000 X79.828 Y79.205
G1 F1200 X141.415 Y140.793 E310.30369
G0 F6000 X142.037 Y140.793
G1 F1200 X80.45 Y79.205 E313.49026
G0 F6000 X81.072 Y79.205
G1 F1200 X142.66 Y140.793 E316.67687
G0 F6000 X143.282 Y140.793
G1 F1200 X81.694 Y79.205 E319.86347
G0 F6000 X82.317 Y79.205
G1 F1200 X143.904 Y140.793 E323.05004
G0 F6000 X144.526 Y140.793
G1 F1200 X82.939 Y79.205 E326.23662
G0 F6000 X83.561 Y79.205
G1 F1200 X145.149 Y140.793 E329.42322
G0 F6000 X145.771 Y140.793
G1 F1200 X84.183 Y79.205 E332.60982
G0 F6000 X84.806 Y79.205
G1 F1200 X146.393 Y140.793 E335.7964
G0 F6000 X147.015 Y140.793
G1 F1200 X85.428 Y79.205 E338.98297
G0 F6000 X86.05 Y79.205
G1 F1200 X147.638 Y140.793 E342.16958
G0 F6000 X148.26 Y140.793
G1 F1200 X86.672 Y79.205 E345.35618
G0 F6000 X87.295 Y79.205
G1 F1200 X148.882 Y140.793 E348.54275
G0 F6000 X149.505 Y140.793
G1 F1200 X87.917 Y79.205 E351.72936
G0 F6000 X88.539 Y79.205
G1 F1200 X150.127 Y140.793 E354.91596
G0 F6000 X150.749 Y140.793
G1 F1200 X89.161 Y79.205 E358.10256
G0 F6000 X89.784 Y79.205
G1 F1200 X151.371 Y140.793 E361.28913
G0 F6000 X151.994 Y140.793
G1 F1200 X90.406 Y79.205 E364.47574
G0 F6000 X91.028 Y79.205
G1 F1200 X152.616 Y140.793 E367.66234
G0 F6000 X153.238 Y140.793
G1 F1200 X91.65 Y79.205 E370.84894
G0 F6000 X92.273 Y79.205
G1 F1200 X153.86 Y140.793 E374.03552
G0 F6000 X154.483 Y140.793
G1 F1200 X92.895 Y79.205 E377.22212
