;FLAVOR:Marlin
;TIME:5028
;Filament used: 6.71406m
;Layer height: 0.2
;MINX:52.34
;MINY:52.34
;MINZ:0.2
;MAXX:167.66
;MAXY:167.66
;MAXZ:3.2
;Generated with Cura_SteamEngine 4.2.0
M140 S50
M105
M190 S50
M104 S210
M105
M109 S210
M82 ;absolute extrusion mode
; Ender 3 Custom Start G-code
G28 ; Home all axes
G92 E0 ; Reset Extruder
G1 Z2.0 F3000 ; Move Z Axis up little to prevent scratching of Heat Bed
G1 X0.1 Y20 Z0.3 F5000.0 ; Move to start position
G1 X0.1 Y200.0 Z0.3 F1500.0 E15 ; Draw the first line
G1 X0.4 Y200.0 Z0.3 F5000.0 ; Move to side a little
G1 X0.4 Y20 Z0.3 F1500.0 E30 ; Draw the second line
G92 E0 ; Reset Extruder
G1 Z2.0 F3000 ; Move Z Axis up little to prevent scratching of Heat Bed
G90 ; absolute xyz﻿
M141 S28
G92 E0
G92 E0
G1 F1500 E-5
;LAYER_COUNT:15
;LAYER:0
M107
G0 F6000 X55.531 Y55.412 Z0.2
;TYPE:SKIRT
G1 F1500 E0
G1 F1200 X56.216 Y54.794 E0.03375
G1 X56.952 Y54.237 E0.06752
G1 X57.734 Y53.746 E0.10131
G1 X58.556 Y53.324 E0.13511
G1 X59.41 Y52.975 E0.16886
G1 X60.292 Y52.701 E0.20265
G1 X61.194 Y52.505 E0.23642
G1 X62.11 Y52.387 E0.27021
G1 X62.71 Y52.353 E0.2922
G1 X63.031 Y52.344 E0.30395
G1 X63.33 Y52.34 E0.31489
G1 X156.293 Y52.34 E3.71605
G1 X156.446 Y52.341 E3.72165
G1 X157.144 Y52.351 E3.74719
G1 X158.065 Y52.404 E3.78094
G1 X158.979 Y52.537 E3.81473
G1 X159.878 Y52.748 E3.84851
G1 X160.755 Y53.037 E3.8823
G1 X161.604 Y53.4 E3.91608
G1 X162.418 Y53.835 E3.94985
G1 X163.192 Y54.339 E3.98364
G1 X163.919 Y54.908 E4.01741
G1 X164.594 Y55.538 E4.0512
G1 X165.212 Y56.224 E4.08498
G1 X165.768 Y56.96 E4.11872
G1 X166.259 Y57.743 E4.15254
G1 X166.68 Y58.564 E4.18629
G1 X167.028 Y59.419 E4.22007
G1 X167.301 Y60.301 E4.25385
G1 X167.497 Y61.203 E4.28762
G1 X167.614 Y62.119 E4.3214
G1 X167.647 Y62.71 E4.34306
G1 X167.656 Y63.03 E4.35477
G1 X167.66 Y63.33 E4.36575
G1 X167.66 Y156.264 E7.76584
G1 X167.659 Y156.396 E7.77067
G1 X167.65 Y157.123 E7.79727
G1 X167.599 Y158.045 E7.83106
G1 X167.468 Y158.959 E7.86484
G1 X167.258 Y159.858 E7.89862
G1 X166.972 Y160.736 E7.9324
G1 X166.61 Y161.585 E7.96617
G1 X166.177 Y162.4 E7.99993
G1 X165.674 Y163.175 E8.03373
G1 X165.107 Y163.903 E8.06749
G1 X164.478 Y164.579 E8.10128
G1 X163.793 Y165.199 E8.13508
G1 X163.058 Y165.756 E8.16882
G1 X162.276 Y166.248 E8.20262
G1 X161.456 Y166.671 E8.23638
G1 X160.601 Y167.021 E8.27018
G1 X159.72 Y167.296 E8.30395
G1 X158.818 Y167.493 E8.33772
G1 X157.902 Y167.612 E8.37152
G1 X157.29 Y167.647 E8.39395
G1 X156.969 Y167.656 E8.40569
G1 X156.67 Y167.66 E8.41663
G1 X63.707 Y167.66 E11.81779
G1 X63.57 Y167.659 E11.82281
G1 X62.872 Y167.65 E11.84834
G1 X61.95 Y167.598 E11.88213
G1 X61.036 Y167.467 E11.91591
G1 X60.137 Y167.257 E11.94969
G1 X59.259 Y166.97 E11.98348
G1 X58.41 Y166.608 E12.01725
G1 X57.595 Y166.174 E12.05103
G1 X56.821 Y165.671 E12.0848
G1 X56.093 Y165.103 E12.11859
G1 X55.417 Y164.474 E12.15237
G1 X54.798 Y163.789 E12.18615
G1 X54.241 Y163.053 E12.21992
G1 X53.749 Y162.272 E12.25369
G1 X53.327 Y161.451 E12.28746
G1 X52.977 Y160.596 E12.32126
G1 X52.703 Y159.715 E12.35502
G1 X52.506 Y158.813 E12.3888
G1 X52.388 Y157.897 E12.42259
G1 X52.353 Y157.279 E12.44523
G1 X52.344 Y156.946 E12.45742
G1 X52.34 Y156.658 E12.46796
G1 X52.34 Y63.674 E15.86988
G1 X52.341 Y63.53 E15.87515
G1 X52.35 Y62.865 E15.89948
G1 X52.402 Y61.943 E15.93327
G1 X52.534 Y61.029 E15.96706
G1 X52.745 Y60.13 E16.00084
G1 X53.033 Y59.253 E16.03461
G1 X53.395 Y58.404 E16.06838
G1 X53.83 Y57.589 E16.10218
G1 X54.333 Y56.815 E16.13595
G1 X54.901 Y56.088 E16.16971
G1 X55.531 Y55.412 E16.20351
G0 F6000 X55.961 Y55.608
G1 F1200 X56.643 Y55.014 E16.2366
G1 X57.374 Y54.483 E16.26966
G1 X58.15 Y54.018 E16.30276
G1 X58.963 Y53.624 E16.33581
G1 X59.809 Y53.303 E16.36891
G1 X60.679 Y53.058 E16.40198
G1 X61.567 Y52.891 E16.43504
G1 X62.723 Y52.793 E16.47749
G1 X63.044 Y52.784 E16.48923
G1 X63.33 Y52.78 E16.4997
G1 X156.293 Y52.78 E19.90086
G1 X156.439 Y52.781 E19.9062
G1 X157.137 Y52.791 E19.93174
G1 X158.04 Y52.844 E19.96483
G1 X158.934 Y52.976 E19.9979
G1 X159.813 Y53.187 E20.03097
G1 X160.67 Y53.475 E20.06405
G1 X161.498 Y53.838 E20.09712
G1 X162.291 Y54.272 E20.1302
G1 X163.043 Y54.774 E20.16328
G1 X163.747 Y55.341 E20.19635
G1 X164.398 Y55.968 E20.22942
G1 X164.991 Y56.65 E20.26248
G1 X165.522 Y57.382 E20.29557
G1 X165.986 Y58.158 E20.32865
G1 X166.379 Y58.972 E20.36172
G1 X166.699 Y59.817 E20.39477
G1 X166.944 Y60.688 E20.42788
G1 X167.11 Y61.576 E20.46093
G1 X167.207 Y62.723 E20.50304
G1 X167.216 Y63.043 E20.51475
G1 X167.22 Y63.33 E20.52526
G1 X167.22 Y156.264 E23.92535
G1 X167.219 Y156.391 E23.93
G1 X167.21 Y157.118 E23.9566
G1 X167.159 Y158.02 E23.98965
G1 X167.028 Y158.915 E24.02275
G1 X166.819 Y159.794 E24.0558
G1 X166.533 Y160.651 E24.08886
G1 X166.172 Y161.48 E24.12194
G1 X165.74 Y162.274 E24.15501
G1 X165.238 Y163.027 E24.18812
G1 X164.673 Y163.732 E24.22117
G1 X164.047 Y164.384 E24.25424
G1 X163.366 Y164.979 E24.28733
G1 X162.635 Y165.511 E24.3204
G1 X161.861 Y165.976 E24.35344
G1 X161.047 Y166.371 E24.38654
G1 X160.203 Y166.693 E24.41959
G1 X159.333 Y166.939 E24.45267
G1 X158.445 Y167.107 E24.48573
G1 X157.277 Y167.207 E24.52862
G1 X156.956 Y167.216 E24.54037
G1 X156.67 Y167.22 E24.55084
G1 X63.707 Y167.22 E27.95199
G1 X63.575 Y167.219 E27.95682
G1 X62.877 Y167.21 E27.98236
G1 X61.975 Y167.159 E28.01542
G1 X61.08 Y167.027 E28.04852
G1 X60.201 Y166.818 E28.08157
G1 X59.344 Y166.531 E28.11464
G1 X58.515 Y166.17 E28.14772
G1 X57.721 Y165.737 E28.18081
G1 X56.969 Y165.235 E28.21389
G1 X56.264 Y164.669 E28.24696
G1 X55.612 Y164.043 E28.28003
G1 X55.018 Y163.362 E28.31309
G1 X54.486 Y162.631 E28.34617
G1 X54.021 Y161.856 E28.37924
G1 X53.626 Y161.043 E28.41231
G1 X53.305 Y160.198 E28.44538
G1 X53.06 Y159.328 E28.47845
G1 X52.892 Y158.439 E28.51155
G1 X52.793 Y157.267 E28.55458
G1 X52.784 Y156.934 E28.56677
G1 X52.78 Y156.658 E28.57686
G1 X52.78 Y63.674 E31.97879
G1 X52.781 Y63.536 E31.98384
G1 X52.79 Y62.871 E32.00817
G1 X52.842 Y61.968 E32.04126
G1 X52.974 Y61.074 E32.07433
G1 X53.184 Y60.195 E32.10739
G1 X53.471 Y59.337 E32.14049
G1 X53.833 Y58.509 E32.17355
G1 X54.267 Y57.716 E32.20663
G1 X54.768 Y56.964 E32.23969
G1 X55.335 Y56.259 E32.27279
G1 X55.961 Y55.608 E32.30583
G1 F1500 E27.30583
G1 F300 Z0.4
;MESH:susan platform.stl
G0 F6000 X64.1 Y155.9 Z0.4
;TYPE:WALL-INNER
G1 F300 Z0.2
G1 F1500 E32.30583
G1 F1200 X64.1 Y64.1 E35.66444
G1 X155.9 Y64.1 E39.02305
G1 X155.9 Y155.9 E42.38165
G1 X64.1 Y155.9 E45.74026
G1 F1500 E40.74026
G1 F300 Z0.4
G0 F6000 X69.25 Y153.86 Z0.4
G1 F300 Z0.2
G1 F1500 E45.74026
G1 F1200 X70.055 Y153.754 E45.76997
G1 X70.805 Y153.442 E45.79969
G1 X71.449 Y152.949 E45.82936
G1 X71.942 Y152.305 E45.85903
G1 X72.254 Y151.555 E45.88875
G1 X72.36 Y150.75 E45.91846
G1 X72.254 Y149.945 E45.94817
G1 X71.942 Y149.195 E45.97788
G1 X71.449 Y148.551 E46.00756
G1 X70.805 Y148.058 E46.03723
G1 X70.055 Y147.746 E46.06695
G1 X69.25 Y147.64 E46.09666
G1 X68.445 Y147.746 E46.12636
G1 X67.695 Y148.058 E46.15608
G1 X67.051 Y148.551 E46.18575
G1 X66.558 Y149.195 E46.21543
G1 X66.246 Y149.945 E46.24515
G1 X66.14 Y150.75 E46.27485
G1 X66.246 Y151.555 E46.30456
G1 X66.558 Y152.305 E46.33428
G1 X67.051 Y152.949 E46.36395
G1 X67.695 Y153.442 E46.39362
G1 X68.445 Y153.754 E46.42334
G1 X69.25 Y153.86 E46.45305
G1 F1500 E41.45305
G1 F300 Z0.4
G0 F6000 X150.75 Y153.86 Z0.4
G1 F300 Z0.2
G1 F1500 E46.45305
G1 F1200 X151.555 Y153.754 E46.48275
G1 X152.305 Y153.442 E46.51247
G1 X152.949 Y152.949 E46.54215
G1 X153.442 Y152.305 E46.57182
G1 X153.754 Y151.555 E46.60154
G1 X153.86 Y150.75 E46.63124
G1 X153.754 Y149.945 E46.66095
G1 X153.442 Y149.195 E46.69067
G1 X152.949 Y148.551 E46.72034
G1 X152.305 Y148.058 E46.75002
G1 X151.555 Y147.746 E46.77973
G1 X150.75 Y147.64 E46.80944
G1 X149.945 Y147.746 E46.83915
G1 X149.195 Y148.058 E46.86887
G1 X148.551 Y148.551 E46.89854
G1 X148.058 Y149.195 E46.92821
G1 X147.746 Y149.945 E46.95793
G1 X147.64 Y150.75 E46.98764
G1 X147.746 Y151.555 E47.01734
G1 X148.058 Y152.305 E47.04706
G1 X148.551 Y152.949 E47.07673
G1 X149.195 Y153.442 E47.10641
G1 X149.945 Y153.754 E47.13613
G1 X150.75 Y153.86 E47.16583
G1 F1500 E42.16583
G1 F300 Z0.4
G0 F6000 X150.75 Y72.36 Z0.4
G1 F300 Z0.2
G1 F1500 E47.16583
G1 F1200 X151.555 Y72.254 E47.19554
G1 X152.305 Y71.942 E47.22526
G1 X152.949 Y71.449 E47.25493
G1 X153.442 Y70.805 E47.2846
G1 X153.754 Y70.055 E47.31432
G1 X153.86 Y69.25 E47.34403
G1 X153.754 Y68.445 E47.37374
G1 X153.442 Y67.695 E47.40345
G1 X152.949 Y67.051 E47.43313
G1 X152.305 Y66.558 E47.4628
G1 X151.555 Y66.246 E47.49252
G1 X150.75 Y66.14 E47.52223
G1 X149.945 Y66.246 E47.55193
G1 X149.195 Y66.558 E47.58165
G1 X148.551 Y67.051 E47.61132
G1 X148.058 Y67.695 E47.641
G1 X147.746 Y68.445 E47.67072
G1 X147.64 Y69.25 E47.70042
G1 X147.746 Y70.055 E47.73013
G1 X148.058 Y70.805 E47.75985
G1 X148.551 Y71.449 E47.78952
G1 X149.195 Y71.942 E47.81919
G1 X149.945 Y72.254 E47.84891
G1 X150.75 Y72.36 E47.87862
G1 F1500 E42.87862
G1 F300 Z0.4
G0 F6000 X69.25 Y72.36 Z0.4
G1 F300 Z0.2
G1 F1500 E47.87862
G1 F1200 X70.055 Y72.254 E47.90832
G1 X70.805 Y71.942 E47.93804
G1 X71.449 Y71.449 E47.96772
G1 X71.942 Y70.805 E47.99739
G1 X72.254 Y70.055 E48.02711
G1 X72.36 Y69.25 E48.05681
G1 X72.254 Y68.445 E48.08652
G1 X71.942 Y67.695 E48.11624
G1 X71.449 Y67.051 E48.14591
G1 X70.805 Y66.558 E48.17558
G1 X70.055 Y66.246 E48.2053
G1 X69.25 Y66.14 E48.23501
G1 X68.445 Y66.246 E48.26472
G1 X67.695 Y66.558 E48.29444
G1 X67.051 Y67.051 E48.32411
G1 X66.558 Y67.695 E48.35378
G1 X66.246 Y68.445 E48.3835
G1 X66.14 Y69.25 E48.41321
G1 X66.246 Y70.055 E48.44291
G1 X66.558 Y70.805 E48.47263
G1 X67.051 Y71.449 E48.5023
G1 X67.695 Y71.942 E48.53198
G1 X68.445 Y72.254 E48.5617
G1 X69.25 Y72.36 E48.5914
G1 F1500 E43.5914
G1 F300 Z0.4
G0 F6000 X63.66 Y156.34 Z0.4
G1 F300 Z0.2
G1 F1500 E48.5914
G1 F1200 X63.66 Y63.66 E51.98221
G1 X156.34 Y63.66 E55.37301
G1 X156.34 Y156.34 E58.76382
G1 X63.66 Y156.34 E62.15462
G1 F1500 E57.15462
G1 F300 Z0.4
G0 F6000 X69.25 Y153.416 Z0.4
G1 F300 Z0.2
G1 F1500 E62.15462
G1 F1200 X69.94 Y153.325 E62.18008
G1 X70.583 Y153.058 E62.20556
G1 X71.135 Y152.635 E62.231
G1 X71.558 Y152.083 E62.25644
G1 X71.825 Y151.44 E62.28191
G1 X71.916 Y150.75 E62.30738
G1 X71.825 Y150.06 E62.33284
G1 X71.558 Y149.417 E62.35831
G1 X71.135 Y148.865 E62.38376
G1 X70.583 Y148.442 E62.4092
G1 X69.94 Y148.175 E62.43467
G1 X69.25 Y148.084 E62.46013
G1 X68.56 Y148.175 E62.4856
G1 X67.917 Y148.442 E62.51107
G1 X67.365 Y148.865 E62.53651
G1 X66.942 Y149.417 E62.56196
G1 X66.675 Y150.06 E62.58743
G1 X66.584 Y150.75 E62.61289
G1 X66.675 Y151.44 E62.63836
G1 X66.942 Y152.083 E62.66383
G1 X67.365 Y152.635 E62.68927
G1 X67.917 Y153.058 E62.71471
G1 X68.56 Y153.325 E62.74019
G1 X69.25 Y153.416 E62.76565
G1 F1500 E57.76565
G1 F300 Z0.4
G0 F6000 X150.75 Y153.416 Z0.4
G1 F300 Z0.2
G1 F1500 E62.76565
G1 F1200 X151.44 Y153.325 E62.79111
G1 X152.083 Y153.058 E62.81659
G1 X152.635 Y152.635 E62.84203
G1 X153.058 Y152.083 E62.86747
G1 X153.325 Y151.44 E62.89294
G1 X153.416 Y150.75 E62.91841
G1 X153.325 Y150.06 E62.94387
G1 X153.058 Y149.417 E62.96934
G1 X152.635 Y148.865 E62.99479
G1 X152.083 Y148.442 E63.02023
G1 X151.44 Y148.175 E63.0457
G1 X150.75 Y148.084 E63.07117
G1 X150.06 Y148.175 E63.09663
G1 X149.417 Y148.442 E63.1221
G1 X148.865 Y148.865 E63.14754
G1 X148.442 Y149.417 E63.17299
G1 X148.175 Y150.06 E63.19846
G1 X148.084 Y150.75 E63.22392
G1 X148.175 Y151.44 E63.24939
G1 X148.442 Y152.083 E63.27486
G1 X148.865 Y152.635 E63.3003
G1 X149.417 Y153.058 E63.32575
G1 X150.06 Y153.325 E63.35122
G1 X150.75 Y153.416 E63.37668
G1 F1500 E58.37668
G1 F300 Z0.4
G0 F6000 X150.75 Y71.916 Z0.4
G1 F300 Z0.2
G1 F1500 E63.37668
G1 F1200 X151.44 Y71.825 E63.40214
G1 X152.083 Y71.558 E63.42762
G1 X152.635 Y71.135 E63.45306
G1 X153.058 Y70.583 E63.4785
G1 X153.325 Y69.94 E63.50398
G1 X153.416 Y69.25 E63.52944
G1 X153.325 Y68.56 E63.5549
G1 X153.058 Y67.917 E63.58037
G1 X152.635 Y67.365 E63.60582
G1 X152.083 Y66.942 E63.63126
G1 X151.44 Y66.675 E63.65673
G1 X150.75 Y66.584 E63.6822
G1 X150.06 Y66.675 E63.70766
G1 X149.417 Y66.942 E63.73313
G1 X148.865 Y67.365 E63.75858
G1 X148.442 Y67.917 E63.78402
G1 X148.175 Y68.56 E63.80949
G1 X148.084 Y69.25 E63.83495
G1 X148.175 Y69.94 E63.86042
G1 X148.442 Y70.583 E63.88589
G1 X148.865 Y71.135 E63.91133
G1 X149.417 Y71.558 E63.93678
G1 X150.06 Y71.825 E63.96225
G1 X150.75 Y71.916 E63.98771
G1 F1500 E58.98771
G1 F300 Z0.4
G0 F6000 X69.25 Y71.916 Z0.4
G1 F300 Z0.2
G1 F1500 E63.98771
G1 F1200 X69.94 Y71.825 E64.01317
G1 X70.583 Y71.558 E64.03865
G1 X71.135 Y71.135 E64.06409
G1 X71.558 Y70.583 E64.08953
G1 X71.825 Y69.94 E64.11501
G1 X71.916 Y69.25 E64.14047
G1 X71.825 Y68.56 E64.16593
G1 X71.558 Y67.917 E64.1914
G1 X71.135 Y67.365 E64.21685
G1 X70.583 Y66.942 E64.24229
G1 X69.94 Y66.675 E64.26776
G1 X69.25 Y66.584 E64.29323
G1 X68.56 Y66.675 E64.31869
G1 X67.917 Y66.942 E64.34416
G1 X67.365 Y67.365 E64.36961
G1 X66.942 Y67.917 E64.39505
G1 X66.675 Y68.56 E64.42052
G1 X66.584 Y69.25 E64.44598
G1 X66.675 Y69.94 E64.47145
G1 X66.942 Y70.583 E64.49692
G1 X67.365 Y71.135 E64.52236
G1 X67.917 Y71.558 E64.54781
G1 X68.56 Y71.825 E64.57328
G1 X69.25 Y71.916 E64.59874
G1 F1500 E59.59874
G1 F300 Z0.4
G0 F6000 X63.22 Y156.78 Z0.4
;TYPE:WALL-OUTER
G1 F300 Z0.2
G1 F1500 E64.59874
G1 F1200 X63.22 Y63.22 E68.02174
G1 X156.78 Y63.22 E71.44474
G1 X156.78 Y156.78 E74.86774
G1 X63.22 Y156.78 E78.29074
G1 F1500 E73.29074
G1 F300 Z0.4
G0 F6000 X69.25 Y152.972 Z0.4
G1 F300 Z0.2
G1 F1500 E78.29074
G1 F1200 X69.825 Y152.896 E78.31196
G1 X70.361 Y152.674 E78.33319
G1 X70.821 Y152.321 E78.3544
G1 X71.174 Y151.861 E78.37562
G1 X71.396 Y151.325 E78.39684
G1 X71.472 Y150.75 E78.41806
G1 X71.396 Y150.175 E78.43928
G1 X71.174 Y149.639 E78.46051
G1 X70.821 Y149.179 E78.48172
G1 X70.361 Y148.826 E78.50294
G1 X69.825 Y148.604 E78.52416
G1 X69.25 Y148.528 E78.54538
G1 X68.675 Y148.604 E78.5666
G1 X68.139 Y148.826 E78.58783
G1 X67.679 Y149.179 E78.60904
G1 X67.326 Y149.639 E78.63025
G1 X67.104 Y150.175 E78.65148
G1 X67.028 Y150.75 E78.6727
G1 X67.104 Y151.325 E78.69392
G1 X67.326 Y151.861 E78.71515
G1 X67.679 Y152.321 E78.73636
G1 X68.139 Y152.674 E78.75757
G1 X68.675 Y152.896 E78.7788
G1 X69.25 Y152.972 E78.80002
G1 F1500 E73.80002
G1 F300 Z0.4
G0 F6000 X150.75 Y152.972 Z0.4
G1 F300 Z0.2
G1 F1500 E78.80002
G1 F1200 X151.325 Y152.896 E78.82124
G1 X151.861 Y152.674 E78.84246
G1 X152.321 Y152.321 E78.86368
G1 X152.674 Y151.861 E78.88489
G1 X152.896 Y151.325 E78.90612
G1 X152.972 Y150.75 E78.92734
G1 X152.896 Y150.175 E78.94856
G1 X152.674 Y149.639 E78.96978
G1 X152.321 Y149.179 E78.991
G1 X151.861 Y148.826 E79.01221
G1 X151.325 Y148.604 E79.03344
G1 X150.75 Y148.528 E79.05466
G1 X150.175 Y148.604 E79.07588
G1 X149.639 Y148.826 E79.0971
G1 X149.179 Y149.179 E79.11832
G1 X148.826 Y149.639 E79.13953
G1 X148.604 Y150.175 E79.16076
G1 X148.528 Y150.75 E79.18198
G1 X148.604 Y151.325 E79.2032
G1 X148.826 Y151.861 E79.22442
G1 X149.179 Y152.321 E79.24564
G1 X149.639 Y152.674 E79.26685
G1 X150.175 Y152.896 E79.28808
G1 X150.75 Y152.972 E79.3093
G1 F1500 E74.3093
G1 F300 Z0.4
G0 F6000 X150.75 Y71.472 Z0.4
G1 F300 Z0.2
G1 F1500 E79.3093
G1 F1200 X151.325 Y71.396 E79.33052
G1 X151.861 Y71.174 E79.35174
G1 X152.321 Y70.821 E79.37296
G1 X152.674 Y70.361 E79.39417
G1 X152.896 Y69.825 E79.41539
G1 X152.972 Y69.25 E79.43661
G1 X152.896 Y68.675 E79.45783
G1 X152.674 Y68.139 E79.47906
G1 X152.321 Y67.679 E79.50027
G1 X151.861 Y67.326 E79.52149
G1 X151.325 Y67.104 E79.54271
G1 X150.75 Y67.028 E79.56393
G1 X150.175 Y67.104 E79.58515
G1 X149.639 Y67.326 E79.60638
G1 X149.179 Y67.679 E79.62759
G1 X148.826 Y68.139 E79.64881
G1 X148.604 Y68.675 E79.67003
G1 X148.528 Y69.25 E79.69125
G1 X148.604 Y69.825 E79.71247
G1 X148.826 Y70.361 E79.7337
G1 X149.179 Y70.821 E79.75491
G1 X149.639 Y71.174 E79.77613
G1 X150.175 Y71.396 E79.79735
G1 X150.75 Y71.472 E79.81857
G1 F1500 E74.81857
G1 F300 Z0.4
G0 F6000 X69.25 Y71.472 Z0.4
G1 F300 Z0.2
G1 F1500 E79.81857
G1 F1200 X69.825 Y71.396 E79.83979
G1 X70.361 Y71.174 E79.86102
G1 X70.821 Y70.821 E79.88223
G1 X71.174 Y70.361 E79.90345
G1 X71.396 Y69.825 E79.92467
