;FLAVOR:Marlin
;TIME:2696
;Filament used: 3.63571m
;Layer height: 0.2
;MINX:54.34
;MINY:66.84
;MINZ:0.2
;MAXX:165.66
;MAXY:153.16
;MAXZ:2.2
;Generated with Cura_SteamEngine 4.2.0
M140 S50
M105
M190 S50
M104 S210
M105
M109 S210
M82 ;absolute extrusion mode
; Ender 3 Custom Start G-code
G28 ; Home all axes
G92 E0 ; Reset Extruder
G1 Z2.0 F3000 ; Move Z Axis up little to prevent scratching of Heat Bed
G1 X0.1 Y20 Z0.3 F5000.0 ; Move to start position
G1 X0.1 Y200.0 Z0.3 F1500.0 E15 ; Draw the first line
G1 X0.4 Y200.0 Z0.3 F5000.0 ; Move to side a little
G1 X0.4 Y20 Z0.3 F1500.0 E30 ; Draw the second line
G92 E0 ; Reset Extruder
G1 Z2.0 F3000 ; Move Z Axis up little to prevent scratching of Heat Bed
G90 ; absolute xyz﻿
M141 S28
G92 E0
G92 E0
G1 F1500 E-5
;LAYER_COUNT:10
;LAYER:0
M107
G0 F6000 X58.216 Y69.294 Z0.2
;TYPE:SKIRT
G1 F1500 E0
G1 F1200 X58.952 Y68.737 E0.03377
G1 X59.734 Y68.246 E0.06755
G1 X60.556 Y67.824 E0.10136
G1 X61.41 Y67.475 E0.13511
G1 X62.292 Y67.201 E0.1689
G1 X63.194 Y67.005 E0.20267
G1 X64.11 Y66.887 E0.23646
G1 X64.71 Y66.853 E0.25845
G1 X65.031 Y66.844 E0.2702
G1 X65.33 Y66.84 E0.28114
G1 X154.293 Y66.84 E3.53595
G1 X154.446 Y66.841 E3.54155
G1 X155.144 Y66.851 E3.56709
G1 X156.065 Y66.904 E3.60084
G1 X156.979 Y67.037 E3.63463
G1 X157.878 Y67.248 E3.66842
G1 X158.755 Y67.537 E3.7022
G1 X159.604 Y67.9 E3.73598
G1 X160.418 Y68.335 E3.76975
G1 X161.192 Y68.839 E3.80354
G1 X161.919 Y69.408 E3.83732
G1 X162.594 Y70.038 E3.8711
G1 X163.212 Y70.724 E3.90488
G1 X163.768 Y71.46 E3.93863
G1 X164.259 Y72.243 E3.97244
G1 X164.68 Y73.064 E4.00619
G1 X165.028 Y73.919 E4.03997
G1 X165.301 Y74.801 E4.07375
G1 X165.497 Y75.703 E4.10752
G1 X165.614 Y76.619 E4.1413
G1 X165.647 Y77.21 E4.16296
G1 X165.656 Y77.53 E4.17467
G1 X165.66 Y77.83 E4.18565
G1 X165.66 Y141.764 E6.52475
G1 X165.659 Y141.896 E6.52958
G1 X165.65 Y142.623 E6.55618
G1 X165.599 Y143.545 E6.58996
G1 X165.468 Y144.459 E6.62374
G1 X165.258 Y145.358 E6.65752
G1 X164.972 Y146.236 E6.6913
G1 X164.61 Y147.085 E6.72507
G1 X164.177 Y147.9 E6.75883
G1 X163.674 Y148.675 E6.79264
G1 X163.107 Y149.403 E6.8264
G1 X162.478 Y150.079 E6.86018
G1 X161.793 Y150.699 E6.89398
G1 X161.058 Y151.256 E6.92772
G1 X160.276 Y151.748 E6.96152
G1 X159.456 Y152.171 E6.99528
G1 X158.601 Y152.521 E7.02908
G1 X157.72 Y152.796 E7.06285
G1 X156.818 Y152.993 E7.09663
G1 X155.902 Y153.112 E7.13042
G1 X155.29 Y153.147 E7.15285
G1 X154.969 Y153.156 E7.1646
G1 X154.67 Y153.16 E7.17554
G1 X65.707 Y153.16 E10.43035
G1 X65.57 Y153.159 E10.43536
G1 X64.872 Y153.15 E10.4609
G1 X63.95 Y153.098 E10.49469
G1 X63.036 Y152.967 E10.52847
G1 X62.137 Y152.757 E10.56225
G1 X61.259 Y152.47 E10.59604
G1 X60.41 Y152.108 E10.62981
G1 X59.595 Y151.674 E10.66359
G1 X58.821 Y151.171 E10.69736
G1 X58.093 Y150.603 E10.73115
G1 X57.417 Y149.974 E10.76493
G1 X56.798 Y149.289 E10.79871
G1 X56.241 Y148.553 E10.83248
G1 X55.749 Y147.772 E10.86625
G1 X55.327 Y146.951 E10.90002
G1 X54.977 Y146.096 E10.93382
G1 X54.703 Y145.215 E10.96758
G1 X54.506 Y144.313 E11.00135
G1 X54.388 Y143.397 E11.03514
G1 X54.353 Y142.779 E11.05779
G1 X54.344 Y142.446 E11.06998
G1 X54.34 Y142.158 E11.08052
G1 X54.34 Y78.174 E13.42144
G1 X54.341 Y78.03 E13.42671
G1 X54.35 Y77.365 E13.45105
G1 X54.402 Y76.443 E13.48483
G1 X54.534 Y75.529 E13.51862
G1 X54.745 Y74.63 E13.5524
G1 X55.033 Y73.753 E13.58617
G1 X55.395 Y72.904 E13.61994
G1 X55.83 Y72.089 E13.65374
G1 X56.333 Y71.315 E13.68751
G1 X56.901 Y70.588 E13.72127
G1 X57.531 Y69.912 E13.75507
G1 X58.216 Y69.294 E13.78883
G0 F6000 X58.643 Y69.514
G1 F1200 X59.374 Y68.983 E13.82188
G1 X60.15 Y68.518 E13.85498
G1 X60.963 Y68.124 E13.88803
G1 X61.809 Y67.803 E13.92114
G1 X62.679 Y67.558 E13.95421
G1 X63.567 Y67.391 E13.98727
G1 X64.723 Y67.293 E14.02971
G1 X65.044 Y67.284 E14.04146
G1 X65.33 Y67.28 E14.05192
G1 X154.293 Y67.28 E17.30674
G1 X154.439 Y67.281 E17.31208
G1 X155.137 Y67.291 E17.33762
G1 X156.04 Y67.344 E17.37071
G1 X156.934 Y67.476 E17.40378
G1 X157.813 Y67.687 E17.43685
G1 X158.67 Y67.975 E17.46993
G1 X159.498 Y68.338 E17.503
G1 X160.291 Y68.772 E17.53608
G1 X161.043 Y69.274 E17.56916
G1 X161.747 Y69.841 E17.60223
G1 X162.398 Y70.468 E17.6353
G1 X162.991 Y71.15 E17.66836
G1 X163.522 Y71.882 E17.70145
G1 X163.986 Y72.658 E17.73453
G1 X164.379 Y73.472 E17.7676
G1 X164.699 Y74.317 E17.80065
G1 X164.944 Y75.188 E17.83376
G1 X165.11 Y76.076 E17.86681
G1 X165.207 Y77.223 E17.90892
G1 X165.216 Y77.543 E17.92063
G1 X165.22 Y77.83 E17.93114
G1 X165.22 Y141.764 E20.27023
G1 X165.219 Y141.891 E20.27488
G1 X165.21 Y142.618 E20.30148
G1 X165.159 Y143.52 E20.33454
G1 X165.028 Y144.415 E20.36763
G1 X164.819 Y145.294 E20.40068
G1 X164.533 Y146.151 E20.43374
G1 X164.172 Y146.98 E20.46682
G1 X163.74 Y147.774 E20.49989
G1 X163.238 Y148.527 E20.533
G1 X162.673 Y149.232 E20.56605
G1 X162.047 Y149.884 E20.59912
G1 X161.366 Y150.479 E20.63221
G1 X160.635 Y151.011 E20.66529
G1 X159.861 Y151.476 E20.69832
G1 X159.047 Y151.871 E20.73142
G1 X158.203 Y152.193 E20.76447
G1 X157.333 Y152.439 E20.79755
G1 X156.445 Y152.607 E20.83062
G1 X155.277 Y152.707 E20.87351
G1 X154.956 Y152.716 E20.88525
G1 X154.67 Y152.72 E20.89572
G1 X65.707 Y152.72 E24.15053
G1 X65.575 Y152.719 E24.15536
G1 X64.877 Y152.71 E24.1809
G1 X63.975 Y152.659 E24.21395
G1 X63.08 Y152.527 E24.24705
G1 X62.201 Y152.318 E24.28011
G1 X61.344 Y152.031 E24.31317
G1 X60.515 Y151.67 E24.34626
G1 X59.721 Y151.237 E24.37934
G1 X58.969 Y150.735 E24.41242
G1 X58.264 Y150.169 E24.4455
G1 X57.612 Y149.543 E24.47857
G1 X57.018 Y148.862 E24.51163
G1 X56.486 Y148.131 E24.54471
G1 X56.021 Y147.356 E24.57778
G1 X55.626 Y146.543 E24.61084
G1 X55.305 Y145.698 E24.64392
G1 X55.06 Y144.828 E24.67698
G1 X54.892 Y143.939 E24.71008
G1 X54.793 Y142.767 E24.75312
G1 X54.784 Y142.434 E24.7653
G1 X54.78 Y142.158 E24.7754
G1 X54.78 Y78.174 E27.11633
G1 X54.781 Y78.036 E27.12138
G1 X54.79 Y77.371 E27.14571
G1 X54.842 Y76.468 E27.1788
G1 X54.974 Y75.574 E27.21187
G1 X55.184 Y74.695 E27.24493
G1 X55.471 Y73.837 E27.27803
G1 X55.833 Y73.009 E27.31109
G1 X56.267 Y72.216 E27.34417
G1 X56.768 Y71.464 E27.37723
G1 X57.335 Y70.759 E27.41033
G1 X57.961 Y70.108 E27.44337
G1 X58.643 Y69.514 E27.47646
G1 F1500 E22.47646
G1 F300 Z0.4
;MESH:susan platform (1) (1) (1).stl
G0 F6000 X66.1 Y141.4 Z0.4
;TYPE:WALL-INNER
G1 F300 Z0.2
G1 F1500 E27.47646
G1 F1200 X66.1 Y78.6 E29.77407
G1 X153.9 Y78.6 E32.98633
G1 X153.9 Y141.4 E35.28394
G1 X66.1 Y141.4 E38.49621
G0 F6000 X65.66 Y141.84
G1 F1200 X65.66 Y78.16 E40.82601
G1 X154.34 Y78.16 E44.07047
G1 X154.34 Y141.84 E46.40028
G1 X65.66 Y141.84 E49.64474
G0 F6000 X65.22 Y142.28
;TYPE:WALL-OUTER
G1 F1200 X65.22 Y77.72 E52.00674
G1 X154.78 Y77.72 E55.28339
G1 X154.78 Y142.28 E57.6454
G1 X65.22 Y142.28 E60.92205
G1 F1500 E55.92205
G1 F300 Z0.4
G0 F6000 X66.53 Y140.97 Z0.4
;TYPE:SKIN
G1 F300 Z0.2
G1 F1500 E60.92205
G1 F1200 X66.53 Y79.03 E63.1882
G1 X153.47 Y79.03 E66.369
G1 X153.47 Y140.97 E68.63514
G1 X66.53 Y140.97 E71.81594
G0 F6000 X67.367 Y140.793
G1 F1200 X66.705 Y140.131 E71.8502
G0 F6000 X66.705 Y139.509
G1 F1200 X67.989 Y140.793 E71.91663
G0 F6000 X68.611 Y140.793
G1 F1200 X66.705 Y138.887 E72.01525
G0 F6000 X66.705 Y138.264
G1 F1200 X69.234 Y140.793 E72.1461
G0 F6000 X69.856 Y140.793
G1 F1200 X66.705 Y137.642 E72.30913
G0 F6000 X66.705 Y137.02
G1 F1200 X70.478 Y140.793 E72.50435
G0 F6000 X71.101 Y140.793
G1 F1200 X66.705 Y136.398 E72.73178
G0 F6000 X66.705 Y135.775
G1 F1200 X71.723 Y140.793 E72.99141
G0 F6000 X72.345 Y140.793
G1 F1200 X66.705 Y135.153 E73.28323
G0 F6000 X66.705 Y134.531
G1 F1200 X72.967 Y140.793 E73.60723
G0 F6000 X73.59 Y140.793
G1 F1200 X66.705 Y133.909 E73.96344
G0 F6000 X66.705 Y133.286
G1 F1200 X74.212 Y140.793 E74.35185
G0 F6000 X74.834 Y140.793
G1 F1200 X66.705 Y132.664 E74.77245
G0 F6000 X66.705 Y132.042
G1 F1200 X75.456 Y140.793 E75.22524
G0 F6000 X76.079 Y140.793
G1 F1200 X66.705 Y131.42 E75.71023
G0 F6000 X66.705 Y130.797
G1 F1200 X76.701 Y140.793 E76.22743
G0 F6000 X77.323 Y140.793
G1 F1200 X66.705 Y130.175 E76.77681
G0 F6000 X66.705 Y129.553
G1 F1200 X77.945 Y140.793 E77.35837
G0 F6000 X78.568 Y140.793
G1 F1200 X66.705 Y128.931 E77.97215
G0 F6000 X66.705 Y128.308
G1 F1200 X79.19 Y140.793 E78.61813
G0 F6000 X79.812 Y140.793
G1 F1200 X66.705 Y127.686 E79.29629
G0 F6000 X66.705 Y127.064
G1 F1200 X80.434 Y140.793 E80.00664
G0 F6000 X81.057 Y140.793
G1 F1200 X66.705 Y126.442 E80.7492
G0 F6000 X66.705 Y125.819
G1 F1200 X81.679 Y140.793 E81.52396
G0 F6000 X82.301 Y140.793
G1 F1200 X66.705 Y125.197 E82.33091
G0 F6000 X66.705 Y124.575
G1 F1200 X82.923 Y140.793 E83.17004
G0 F6000 X83.546 Y140.793
G1 F1200 X66.705 Y123.952 E84.0414
G0 F6000 X66.705 Y123.33
G1 F1200 X84.168 Y140.793 E84.94495
G0 F6000 X84.79 Y140.793
G1 F1200 X66.705 Y122.708 E85.88068
G0 F6000 X66.705 Y122.086
G1 F1200 X85.412 Y140.793 E86.84859
G0 F6000 X86.035 Y140.793
G1 F1200 X66.705 Y121.463 E87.84873
G0 F6000 X66.705 Y120.841
G1 F1200 X86.657 Y140.793 E88.88106
G0 F6000 X87.279 Y140.793
G1 F1200 X66.705 Y120.219 E89.94557
G0 F6000 X66.705 Y119.597
G1 F1200 X87.901 Y140.793 E91.04227
G0 F6000 X88.524 Y140.793
G1 F1200 X66.705 Y118.974 E92.1712
G0 F6000 X66.705 Y118.352
G1 F1200 X89.146 Y140.793 E93.33231
G0 F6000 X89.768 Y140.793
G1 F1200 X66.705 Y117.73 E94.5256
G0 F6000 X66.705 Y117.108
G1 F1200 X90.39 Y140.793 E95.75108
G0 F6000 X91.013 Y140.793
G1 F1200 X66.705 Y116.485 E97.00879
G0 F6000 X66.705 Y115.863
G1 F1200 X91.635 Y140.793 E98.29868
G0 F6000 X92.257 Y140.793
G1 F1200 X66.705 Y115.241 E99.62076
G0 F6000 X66.705 Y114.619
G1 F1200 X92.879 Y140.793 E100.97502
G0 F6000 X93.502 Y140.793
G1 F1200 X66.705 Y113.996 E102.36151
G0 F6000 X66.705 Y113.374
G1 F1200 X94.124 Y140.793 E103.78019
G0 F6000 X94.746 Y140.793
G1 F1200 X66.705 Y112.752 E105.23105
G0 F6000 X66.705 Y112.13
G1 F1200 X95.368 Y140.793 E106.71409
G0 F6000 X95.991 Y140.793
G1 F1200 X66.705 Y111.507 E108.22937
G0 F6000 X66.705 Y110.885
G1 F1200 X96.613 Y140.793 E109.77683
G0 F6000 X97.235 Y140.793
G1 F1200 X66.705 Y110.263 E111.35647
G0 F6000 X66.705 Y109.641
G1 F1200 X97.857 Y140.793 E112.96829
G0 F6000 X98.48 Y140.793
G1 F1200 X66.705 Y109.018 E114.61235
G0 F6000 X66.705 Y108.396
G1 F1200 X99.102 Y140.793 E116.28859
G0 F6000 X99.724 Y140.793
G1 F1200 X66.705 Y107.774 E117.99701
G0 F6000 X66.705 Y107.152
G1 F1200 X100.346 Y140.793 E119.73762
G0 F6000 X100.969 Y140.793
G1 F1200 X66.705 Y106.529 E121.51046
G0 F6000 X66.705 Y105.907
G1 F1200 X101.591 Y140.793 E123.31549
G0 F6000 X102.213 Y140.793
G1 F1200 X66.705 Y105.285 E125.15269
G0 F6000 X66.705 Y104.663
G1 F1200 X102.835 Y140.793 E127.02208
G0 F6000 X103.458 Y140.793
G1 F1200 X66.705 Y104.04 E128.9237
G0 F6000 X66.705 Y103.418
G1 F1200 X104.08 Y140.793 E130.85751
G0 F6000 X104.702 Y140.793
G1 F1200 X66.705 Y102.796 E132.8235
G0 F6000 X66.705 Y102.174
G1 F1200 X105.324 Y140.793 E134.82167
G0 F6000 X105.947 Y140.793
G1 F1200 X66.705 Y101.551 E136.85207
G0 F6000 X66.705 Y100.929
G1 F1200 X106.569 Y140.793 E138.91466
G0 F6000 X107.191 Y140.793
G1 F1200 X66.705 Y100.307 E141.00943
G0 F6000 X66.705 Y99.685
G1 F1200 X107.813 Y140.793 E143.13639
G0 F6000 X108.436 Y140.793
G1 F1200 X66.705 Y99.062 E145.29558
G0 F6000 X66.705 Y98.44
G1 F1200 X109.058 Y140.793 E147.48695
G0 F6000 X109.68 Y140.793
G1 F1200 X66.705 Y97.818 E149.7105
G0 F6000 X66.705 Y97.196
G1 F1200 X110.303 Y140.793 E151.96626
G0 F6000 X110.925 Y140.793
G1 F1200 X66.705 Y96.573 E154.25423
G0 F6000 X66.705 Y95.951
G1 F1200 X111.547 Y140.793 E156.57439
G0 F6000 X112.169 Y140.793
G1 F1200 X66.705 Y95.329 E158.92672
G0 F6000 X66.705 Y94.707
G1 F1200 X112.792 Y140.793 E161.31127
G0 F6000 X113.414 Y140.793
G1 F1200 X66.705 Y94.084 E163.72802
G0 F6000 X66.705 Y93.462
G1 F1200 X114.036 Y140.793 E166.17696
G0 F6000 X114.658 Y140.793
G1 F1200 X66.705 Y92.84 E168.65807
G0 F6000 X66.705 Y92.218
G1 F1200 X115.281 Y140.793 E171.1714
G0 F6000 X115.903 Y140.793
G1 F1200 X66.705 Y91.595 E173.71694
G0 F6000 X66.705 Y90.973
G1 F1200 X116.525 Y140.793 E176.29465
G0 F6000 X117.147 Y140.793
G1 F1200 X66.705 Y90.351 E178.90455
G0 F6000 X66.705 Y89.729
G1 F1200 X117.77 Y140.793 E181.54666
G0 F6000 X118.392 Y140.793
G1 F1200 X66.705 Y89.106 E184.22098
G0 F6000 X66.705 Y88.484
G1 F1200 X119.014 Y140.793 E186.92748
G0 F6000 X119.636 Y140.793
G1 F1200 X66.705 Y87.862 E189.66617
G0 F6000 X66.705 Y87.24
G1 F1200 X120.259 Y140.793 E192.43706
G0 F6000 X120.881 Y140.793
G1 F1200 X66.705 Y86.617 E195.24016
G0 F6000 X66.705 Y85.995
G1 F1200 X121.503 Y140.793 E198.07544
G0 F6000 X122.125 Y140.793
G1 F1200 X66.705 Y85.373 E200.94291
G0 F6000 X66.705 Y84.75
G1 F1200 X122.748 Y140.793 E203.84261
G0 F6000 X123.37 Y140.793
G1 F1200 X66.705 Y84.128 E206.77449
G0 F6000 X66.705 Y83.506
G1 F1200 X123.992 Y140.793 E209.73855
G0 F6000 X124.614 Y140.793
G1 F1200 X66.705 Y82.884 E212.7348
G0 F6000 X66.705 Y82.261
G1 F1200 X125.237 Y140.793 E215.76328
G0 F6000 X125.859 Y140.793
G1 F1200 X66.705 Y81.639 E218.82395
G0 F6000 X66.705 Y81.017
G1 F1200 X126.481 Y140.793 E221.9168
G0 F6000 X127.103 Y140.793
G1 F1200 X66.705 Y80.395 E225.04183
G0 F6000 X66.705 Y79.772
G1 F1200 X127.726 Y140.793 E228.19909
G0 F6000 X128.348 Y140.793
G1 F1200 X66.76 Y79.205 E231.38569
G0 F6000 X67.383 Y79.205
G1 F1200 X128.97 Y140.793 E234.57227
G0 F6000 X129.592 Y140.793
G1 F1200 X68.005 Y79.205 E237.75885
G0 F6000 X68.627 Y79.205
G1 F1200 X130.215 Y140.793 E240.94545
G0 F6000 X130.837 Y140.793
G1 F1200 X69.249 Y79.205 E244.13205
G0 F6000 X69.872 Y79.205
G1 F1200 X131.459 Y140.793 E247.31863
G0 F6000 X132.081 Y140.793
G1 F1200 X70.494 Y79.205 E250.5052
G0 F6000 X71.116 Y79.205
G1 F1200 X132.704 Y140.793 E253.6918
G0 F6000 X133.326 Y140.793
G1 F1200 X71.738 Y79.205 E256.8784
G0 F6000 X72.361 Y79.205
G1 F1200 X133.948 Y140.793 E260.06498
G0 F6000 X134.57 Y140.793
G1 F1200 X72.983 Y79.205 E263.25156
G0 F6000 X73.605 Y79.205
G1 F1200 X135.193 Y140.793 E266.43816
G0 F6000 X135.815 Y140.793
G1 F1200 X74.227 Y79.205 E269.62476
G0 F6000 X74.85 Y79.205
G1 F1200 X136.437 Y140.793 E272.81134
G0 F6000 X137.059 Y140.793
G1 F1200 X75.472 Y79.205 E275.99791
G0 F6000 X76.094 Y79.205
G1 F1200 X137.682 Y140.793 E279.18451
G0 F6000 X138.304 Y140.793
G1 F1200 X76.716 Y79.205 E282.37112
G0 F6000 X77.339 Y79.205
G1 F1200 X138.926 Y140.793 E285.55769
G0 F6000 X139.548 Y140.793
G1 F1200 X77.961 Y79.205 E288.74427
G0 F6000 X78.583 Y79.205
G1 F1200 X140.171 Y140.793 E291.93087
G0 F6000 X140.793 Y140.793
G1 F1200 X79.205 Y79.205 E295.11747
G0 F6000 X79.828 Y79.205
G1 F1200 X141.415 Y140.793 E298.30405
G0 F6000 X142.037 Y140.793
G1 F1200 X80.45 Y79.205 E301.49062
G0 F6000 X81.072 Y79.205
G1 F1200 X142.66 Y140.793 E304.67722
G0 F6000 X143.282 Y140.793
G1 F1200 X81.694 Y79.205 E307.86383
G0 F6000 X82.317 Y79.205
G1 F1200 X143.904 Y140.793 E311.0504
G0 F6000 X144.526 Y140.793
G1 F1200 X82.939 Y79.205 E314.23698
G0 F6000 X83.561 Y79.205
G1 F1200 X145.149 Y140.793 E317.42358
G0 F6000 X145.771 Y140.793
G1 F1200 X84.183 Y79.205 E320.61018
G0 F6000 X84.806 Y79.205
G1 F1200 X146.393 Y140.793 E323.79676
G0 F6000 X147.015 Y140.793
G1 F1200 X85.428 Y79.205 E326.98333
G0 F6000 X86.05 Y79.205
G1 F1200 X147.638 Y140.793 E330.16993
G0 F6000 X148.26 Y140.793
G1 F1200 X86.672 Y79.205 E333.35654
G0 F6000 X87.295 Y79.205
G1 F1200 X148.882 Y140.793 E336.54311
G0 F6000 X149.505 Y140.793
G1 F1200 X87.917 Y79.205 E339.72971
G0 F6000 X88.539 Y79.205
G1 F1200 X150.127 Y140.793 E342.91632
G0 F6000 X150.749 Y140.793
G1 F1200 X89.161 Y79.205 E346.10292
G0 F6000 X89.784 Y79.205
G1 F1200 X151.371 Y140.793 E349.28949
G0 F6000 X151.994 Y140.793
G1 F1200 X90.406 Y79.205 E352.4761
G0 F6000 X91.028 Y79.205
G1 F1200 X152.616 Y140.793 E355.6627
G0 F6000 X153.238 Y140.793
G1 F1200 X91.65 Y79.205 E358.8493
G0 F6000 X92.273 Y79.205
G1 F1200 X153.293 Y140.226 E362.00654
G0 F6000 X153.293 Y139.604
G1 F1200 X92.895 Y79.205 E365.13159
G0 F6000 X93.517 Y79.205
G1 F1200 X153.293 Y138.981 E368.22444
G0 F6000 X153.293 Y138.359
G1 F1200 X94.139 Y79.205 E371.28511
G0 F6000 X94.762 Y79.205
G1 F1200 X153.293 Y137.737 E374.31356
G0 F6000 X153.293 Y137.115
G1 F1200 X95.384 Y79.205 E377.30984
